; HEADER_BLOCK_START
; generated by Creality_Print V5.1.7.10514 on 2025-06-20 at 16:13:16
; total layer number: 192
; filament_density: 1.24
; filament_diameter: 1.75
; max_z_height: 47.95
; HEADER_BLOCK_END

; MINX = 120.00
; MINY = 134.50
; MINZ = 0.00
; MAXX = 180.00
; MAXY = 165.50
; MAXZ = 48.00
; THUMBNAIL_BLOCK_START

;
; THUMBNAIL_BLOCK_END

; THUMBNAIL_BLOCK_START

;
; THUMBNAIL_BLOCK_END

; external perimeters extrusion width = 0.50mm
; perimeters extrusion width = 0.50mm
; infill extrusion width = 0.50mm
; solid infill extrusion width = 0.50mm
; top infill extrusion width = 0.42mm
; first layer extrusion width = 0.50mm

; EXECUTABLE_BLOCK_START
EXCLUDE_OBJECT_DEFINE NAME=3DBenchy.stl_id_0_copy_0 CENTER=150,150 POLYGON=[[120,149.973],[120,149.912],[120.004,149.851],[120.008,149.791],[120.014,149.73],[120.022,149.669],[120.032,149.609],[120.042,149.551],[120.055,149.488],[120.068,149.431],[120.084,149.368],[120.099,149.314],[120.117,149.255],[120.137,149.197],[120.158,149.139],[120.18,149.082],[120.203,149.026],[120.229,148.97],[120.256,148.914],[120.284,148.86],[120.313,148.806],[120.345,148.752],[120.376,148.699],[120.41,148.647],[120.528,148.473],[120.66,148.279],[120.794,148.086],[120.929,147.894],[121.064,147.703],[121.203,147.513],[121.34,147.324],[121.48,147.136],[121.62,146.95],[121.763,146.764],[121.905,146.58],[122.049,146.396],[122.341,146.032],[122.49,145.852],[122.639,145.672],[122.79,145.494],[122.94,145.317],[123.093,145.14],[123.248,144.965],[123.403,144.791],[123.518,144.663],[123.674,144.491],[123.833,144.32],[123.992,144.15],[124.152,143.982],[124.312,143.814],[124.474,143.648],[124.8,143.32],[124.965,143.159],[125.131,142.998],[125.297,142.839],[125.465,142.681],[125.632,142.525],[125.801,142.37],[125.972,142.216],[126.143,142.063],[126.314,141.911],[126.487,141.761],[126.661,141.612],[126.836,141.464],[127.013,141.318],[127.189,141.173],[127.368,141.029],[127.546,140.886],[127.725,140.744],[127.907,140.604],[128.089,140.465],[128.272,140.327],[128.456,140.19],[128.641,140.055],[128.826,139.92],[129.201,139.656],[129.389,139.526],[129.579,139.397],[129.77,139.269],[129.961,139.143],[130.154,139.018],[130.347,138.894],[130.542,138.772],[130.737,138.651],[130.933,138.531],[131.131,138.413],[131.328,138.296],[131.528,138.181],[131.728,138.066],[131.928,137.954],[132.13,137.842],[132.405,137.693],[132.605,137.588],[132.804,137.484],[133.004,137.382],[133.204,137.281],[133.405,137.182],[133.608,137.084],[133.81,136.988],[134.012,136.893],[134.217,136.8],[134.421,136.708],[134.626,136.617],[134.831,136.528],[135.036,136.441],[135.243,136.355],[135.333,136.318],[135.451,136.27],[135.659,136.187],[135.878,136.102],[135.997,136.056],[136.296,135.943],[136.507,135.866],[136.707,135.794],[136.929,135.716],[137.116,135.652],[137.13,135.647],[137.344,135.576],[137.557,135.506],[137.793,135.43],[137.995,135.368],[138.021,135.36],[138.249,135.291],[138.477,135.224],[138.705,135.159],[138.858,135.116],[138.934,135.095],[139.076,135.057],[139.293,134.999],[139.394,134.973],[139.512,134.943],[139.731,134.888],[140.156,134.782],[140.684,134.681],[140.694,134.68],[140.95,134.656],[140.997,134.652],[141.189,134.636],[141.274,134.629],[141.439,134.616],[141.519,134.61],[141.866,134.586],[142.312,134.559],[142.351,134.557],[142.736,134.538],[142.874,134.532],[143.221,134.519],[143.436,134.513],[143.656,134.507],[144.093,134.5],[144.478,134.498],[144.823,134.498],[145.123,134.501],[145.179,134.502],[145.401,134.506],[145.543,134.509],[145.661,134.512],[145.833,134.517],[145.924,134.52],[146.07,134.525],[146.248,134.532],[146.272,134.533],[146.43,134.54],[146.537,134.545],[146.668,134.552],[146.867,134.563],[147.111,134.577],[147.356,134.593],[147.371,134.594],[147.658,134.615],[147.904,134.634],[148.151,134.655],[148.332,134.672],[148.397,134.678],[148.577,134.695],[148.821,134.72],[148.889,134.727],[149.065,134.746],[149.381,134.782],[149.627,134.812],[149.796,134.834],[150.118,134.876],[178.172,138.78],[178.207,138.785],[178.257,138.793],[178.314,138.804],[178.346,138.811],[178.403,138.825],[178.415,138.828],[178.452,138.838],[178.463,138.841],[178.519,138.858],[178.571,138.875],[178.583,138.879],[178.638,138.899],[178.688,138.919],[178.747,138.944],[178.803,138.97],[178.845,138.991],[178.895,139.018],[178.914,139.028],[178.956,139.052],[179.007,139.083],[179.021,139.092],[179.056,139.115],[179.065,139.121],[179.113,139.154],[179.153,139.183],[179.16,139.189],[179.207,139.225],[179.244,139.256],[179.251,139.262],[179.296,139.3],[179.338,139.34],[179.359,139.36],[179.408,139.408],[179.443,139.445],[179.461,139.466],[179.481,139.489],[179.519,139.534],[179.555,139.58],[179.569,139.598],[179.59,139.626],[179.593,139.63],[179.627,139.678],[179.643,139.7],[179.658,139.722],[179.692,139.776],[179.721,139.827],[179.749,139.878],[179.769,139.916],[179.782,139.94],[179.804,139.988],[179.831,140.046],[179.852,140.097],[179.873,140.151],[179.891,140.207],[179.893,140.21],[179.909,140.262],[179.925,140.318],[179.94,140.375],[179.954,140.436],[179.965,140.493],[179.974,140.546],[179.975,140.552],[179.984,140.604],[179.988,140.647],[179.992,140.675],[179.998,140.755],[179.999,140.792],[180,140.821],[180,159.184],[179.998,159.245],[179.993,159.301],[179.988,159.354],[179.986,159.37],[179.98,159.417],[179.971,159.475],[179.954,159.564],[179.942,159.621],[179.926,159.678],[179.919,159.704],[179.903,159.761],[179.873,159.845],[179.859,159.882],[179.838,159.936],[179.831,159.953],[179.814,159.99],[179.79,160.042],[179.769,160.084],[179.736,160.146],[179.721,160.173],[179.709,160.194],[179.66,160.273],[179.643,160.3],[179.629,160.321],[179.595,160.369],[179.56,160.416],[179.516,160.469],[179.492,160.499],[179.461,160.534],[179.422,160.577],[179.408,160.592],[179.4,160.6],[179.359,160.641],[179.338,160.66],[179.296,160.7],[179.262,160.729],[179.217,160.766],[179.207,160.775],[179.172,160.803],[179.113,160.846],[179.065,160.879],[179.021,160.908],[178.956,160.948],[178.929,160.964],[178.876,160.992],[178.852,161.005],[178.825,161.019],[178.803,161.03],[178.747,161.056],[178.688,161.081],[178.638,161.101],[178.583,161.121],[178.571,161.125],[178.528,161.139],[178.515,161.143],[178.459,161.16],[178.452,161.162],[178.415,161.172],[178.403,161.175],[178.375,161.182],[178.359,161.186],[178.29,161.201],[178.261,161.206],[178.231,161.211],[178.202,161.216],[150.188,165.114],[149.945,165.147],[149.701,165.179],[149.457,165.209],[149.118,165.248],[148.895,165.272],[148.65,165.298],[148.404,165.322],[148.158,165.344],[147.913,165.365],[147.747,165.378],[147.667,165.384],[147.477,165.398],[147.421,165.402],[147.174,165.419],[147.013,165.429],[146.929,165.434],[146.767,165.443],[146.511,165.456],[146.403,165.461],[146.381,165.462],[146.245,165.468],[146.094,165.474],[145.95,165.479],[145.832,165.483],[145.766,165.485],[145.658,165.488],[145.54,165.491],[145.451,165.493],[145.311,165.496],[145.119,165.499],[144.938,165.501],[144.82,165.502],[144.422,165.502],[144.066,165.5],[143.631,165.492],[143.55,165.49],[143.195,165.48],[143.088,165.476],[142.76,165.463],[142.323,165.442],[141.991,165.422],[141.908,165.417],[141.797,165.41],[141.625,165.398],[141.505,165.389],[141.359,165.378],[141.272,165.371],[141.09,165.356],[140.96,165.345],[140.168,165.22],[140.159,165.218],[139.731,165.112],[139.623,165.085],[139.405,165.03],[139.262,164.993],[139.187,164.973],[139.033,164.932],[138.752,164.855],[138.576,164.805],[138.32,164.73],[138.104,164.666],[137.889,164.6],[137.668,164.53],[137.441,164.457],[137.248,164.393],[136.992,164.306],[136.821,164.247],[136.767,164.228],[136.6,164.168],[136.399,164.095],[136.177,164.013],[135.967,163.933],[135.767,163.855],[135.656,163.812],[135.557,163.772],[135.547,163.768],[135.338,163.684],[135.129,163.598],[135.073,163.575],[134.866,163.487],[134.659,163.397],[134.453,163.307],[134.043,163.121],[133.84,163.026],[133.637,162.93],[133.435,162.832],[133.234,162.733],[133.033,162.633],[132.833,162.531],[132.634,162.428],[132.437,162.323],[132.238,162.217],[132.042,162.11],[131.847,162.001],[131.652,161.89],[131.457,161.779],[131.263,161.666],[131.07,161.551],[130.877,161.435],[130.686,161.317],[130.494,161.199],[130.304,161.078],[130.115,160.957],[129.925,160.833],[129.737,160.709],[129.549,160.583],[129.362,160.456],[129.176,160.327],[128.992,160.197],[128.807,160.066],[128.624,159.933],[128.44,159.799],[128.257,159.663],[128.076,159.526],[127.896,159.388],[127.715,159.248],[127.536,159.107],[127.358,158.964],[127.18,158.82],[127.002,158.675],[126.826,158.528],[126.477,158.23],[126.303,158.079],[126.13,157.926],[125.958,157.772],[125.785,157.616],[125.672,157.511],[125.502,157.355],[125.334,157.197],[125.168,157.038],[125.004,156.878],[124.839,156.717],[124.675,156.555],[124.514,156.391],[124.353,156.227],[124.193,156.061],[124.034,155.894],[123.875,155.726],[123.718,155.557],[123.562,155.386],[123.408,155.215],[123.255,155.042],[123.102,154.868],[122.95,154.694],[122.799,154.517],[122.651,154.34],[122.501,154.162],[122.354,153.983],[122.209,153.802],[122.063,153.62],[121.919,153.437],[121.777,153.253],[121.636,153.068],[121.494,152.882],[121.355,152.695],[121.216,152.507],[121.079,152.317],[120.944,152.126],[120.808,151.935],[120.674,151.742],[120.542,151.548],[120.41,151.353],[120.382,151.308],[120.349,151.255],[120.318,151.202],[120.287,151.148],[120.258,151.093],[120.231,151.038],[120.181,150.924],[120.166,150.883],[120.144,150.825],[120.124,150.767],[120.105,150.708],[120.088,150.649],[120.071,150.587],[120.057,150.53],[120.046,150.47],[120.034,150.407],[120.025,150.348],[120.016,150.287],[120.009,150.226],[120.005,150.164],[120.001,150.095],[120,150.034],[120,149.973]]
M73 P0 R21
M106 S0
M106 P2 S0
;TYPE:Custom
M140 S0
M104 S0 
START_PRINT EXTRUDER_TEMP=210 BED_TEMP=50
T0
M104 S210
M204 S2000
G1 Z3 F600
M83
G1 Y150 F12000
G1 X0 F12000
G1 Z0.2 F600
G1 X0 Y150 F6000
G1 X0 Y0 E15 F6000
M73 P0 R20
G1 X150 Y0 E15 F6000
G92 E0
G1 Z1 F600
M141 S35;set chamber_temperature
G90
G21
M83 ; use relative distances for extrusion
; filament start gcode
 
M104 S210
SET_PRESSURE_ADVANCE ADVANCE=0.04; Override pressure advance value
M106 P2 S255
M106 S0
;LAYER_CHANGE
;Z:0.2
;HEIGHT:0.2
;BEFORE_LAYER_CHANGE
;0.2
G92 E0

G1 E-1 F2100
;_SET_FAN_SPEED_CHANGING_LAYER
SET_VELOCITY_LIMIT ACCEL=10000 ACCEL_TO_DECEL=10000
SET_VELOCITY_LIMIT SQUARE_CORNER_VELOCITY=100
EXCLUDE_OBJECT_START NAME=3DBenchy.stl_id_0_copy_0
G1 X138.415 Y144.876 F30000
G1 Z.2
G1 E1 F2100
;TYPE:Brim
;WIDTH:0.5
G1 F6000
G1 X138.844 Y144.466 E.02211
G1 X139.766 Y143.694 E.04477
G1 X140.703 Y143.016 E.04307
G1 X141.647 Y142.429 E.04141
G1 X142.59 Y141.923 E.03986
G1 X143.575 Y141.474 E.04033
G1 X144.602 Y141.086 E.04089
G1 X145.653 Y140.768 E.04089
G1 X146.705 Y140.522 E.04025
G1 X147.804 Y140.34 E.0415
G1 X148.938 Y140.232 E.04242
G1 X150.077 Y140.202 E.04245
G1 X150.957 Y140.232 E.03277
G1 X174.32 Y141.652 E.8718
G1 X174.721 Y141.698 E.01503
G1 X175.205 Y141.816 E.01855
G1 X175.54 Y141.944 E.01336
G1 X175.958 Y142.163 E.01757
G1 X176.248 Y142.364 E.01315
G1 X176.601 Y142.68 E.01763
G1 X176.847 Y142.965 E.01402
G1 X177.096 Y143.338 E.01671
G1 X177.265 Y143.67 E.01387
G1 X177.404 Y144.039 E.0147
G1 X177.496 Y144.398 E.0138
G1 X177.56 Y144.856 E.01723
G1 X177.567 Y155.035 E.37911
G1 X177.516 Y155.495 E.01724
G1 X177.407 Y155.949 E.01741
G1 X177.236 Y156.395 E.01778
G1 X177.069 Y156.71 E.01329
G1 X176.864 Y157.013 E.01361
G1 X176.565 Y157.356 E.01694
G1 X176.238 Y157.643 E.01623
G1 X175.97 Y157.829 E.01215
G1 X175.609 Y158.026 E.01532
G1 X175.263 Y158.164 E.01385
G1 X174.816 Y158.285 E.01727
G1 X174.519 Y158.33 E.01118
G1 X150.4 Y159.792 E.90001
G1 X149.385 Y159.789 E.03778
G1 X148.23 Y159.709 E.04314
G1 X146.916 Y159.519 E.04944
G1 X145.756 Y159.259 E.04429
G1 X144.799 Y158.979 E.03712
G1 X144.372 Y158.833 E.01682
G1 X143.32 Y158.417 E.04213
G1 X142.219 Y157.888 E.04549
G1 X141.18 Y157.291 E.04465
G1 X140.491 Y156.839 E.03069
G1 X139.725 Y156.275 E.03541
G1 X139.13 Y155.786 E.02871
G1 X138.329 Y155.05 E.0405
G1 X137.653 Y154.345 E.03636
G1 X137.037 Y153.624 E.03535
G1 X136.471 Y152.88 E.03482
G1 X136.042 Y152.251 E.02835
G1 X135.597 Y151.525 E.03173
G1 X135.44 Y151.215 E.01292
G1 X135.299 Y150.82 E.01564
G1 X135.205 Y150.359 E.01753
G1 X135.183 Y149.923 E.01625
G1 X135.228 Y149.492 E.01613
G1 X135.355 Y149.004 E.01878
G1 X135.518 Y148.62 E.01554
G1 X136.065 Y147.712 E.03948
G1 X136.71 Y146.795 E.04176
G1 X137.41 Y145.929 E.04146
G1 X138.161 Y145.118 E.04116
G1 X138.386 Y144.903 E.01159
G1 X138.702 Y145.234 F30000
G1 F6000
G1 X139.152 Y144.804 E.02321
G1 X140.051 Y144.052 E.04362
G1 X140.954 Y143.399 E.04152
G1 X141.88 Y142.822 E.04061
G1 X142.797 Y142.331 E.03875
G1 X143.755 Y141.895 E.03922
G1 X144.754 Y141.518 E.03976
G1 X145.776 Y141.208 E.03976
G1 X146.799 Y140.97 E.03914
G1 X147.868 Y140.793 E.04036
G1 X148.971 Y140.688 E.04125
G1 X150.08 Y140.659 E.04132
G1 X150.937 Y140.689 E.03194
G1 X174.276 Y142.107 E.87091
G1 X174.648 Y142.151 E.01395
G1 X175.06 Y142.252 E.01581
G1 X175.359 Y142.365 E.01191
G1 X175.713 Y142.551 E.01487
G1 X175.97 Y142.729 E.01167
G1 X176.28 Y143.008 E.01549
G1 X176.487 Y143.249 E.01186
G1 X176.697 Y143.563 E.01404
G1 X176.849 Y143.861 E.01249
G1 X176.969 Y144.184 E.01282
G1 X177.048 Y144.494 E.01193
G1 X177.102 Y144.898 E.01516
G1 X177.11 Y155.002 E.37635
G1 X177.065 Y155.408 E.0152
G1 X176.972 Y155.805 E.01519
G1 X176.822 Y156.197 E.01565
G1 X176.68 Y156.468 E.01137
G1 X176.495 Y156.74 E.01224
G1 X176.246 Y157.026 E.01412
G1 X175.962 Y157.278 E.01416
G1 X175.736 Y157.435 E.01026
G1 X175.421 Y157.608 E.01339
G1 X175.126 Y157.727 E.01185
G1 X174.729 Y157.835 E.01531
G1 X174.477 Y157.874 E.0095
G1 X150.382 Y159.335 E.8991
G1 X149.397 Y159.332 E.03668
G1 X148.273 Y159.254 E.04195
G1 X147.004 Y159.07 E.04777
G1 X145.866 Y158.815 E.04345
G1 X144.94 Y158.544 E.03592
G1 X144.533 Y158.405 E.01603
G1 X143.508 Y158 E.04105
G1 X142.437 Y157.485 E.04425
G1 X141.423 Y156.903 E.04356
G1 X140.749 Y156.461 E.03001
G1 X140.003 Y155.912 E.0345
G1 X139.427 Y155.438 E.02779
G1 X138.646 Y154.72 E.03951
G1 X137.995 Y154.041 E.03503
G1 X137.395 Y153.34 E.03438
G1 X136.844 Y152.615 E.03391
G1 X136.427 Y152.006 E.02749
G1 X135.999 Y151.307 E.03054
G1 X135.865 Y151.042 E.01105
G1 X135.738 Y150.687 E.01403
G1 X135.662 Y150.311 E.01428
G1 X135.642 Y149.945 E.01366
G1 X135.678 Y149.584 E.01352
G1 X135.786 Y149.161 E.01625
G1 X135.931 Y148.82 E.01382
G1 X136.451 Y147.958 E.0375
G1 X137.078 Y147.067 E.04058
G1 X137.759 Y146.225 E.04032
G1 X138.49 Y145.436 E.04006
G1 X138.673 Y145.262 E.00942
G1 X138.989 Y145.592 F30000
G1 F6000
G1 X139.46 Y145.141 E.02429
G1 X140.365 Y144.386 E.04389
G1 X141.181 Y143.797 E.0375
G1 X142.058 Y143.247 E.03853
G1 X142.996 Y142.742 E.03971
G1 X143.926 Y142.318 E.03806
G1 X144.897 Y141.952 E.03864
G1 X145.483 Y141.765 E.02293
G1 X146.28 Y141.551 E.03071
G1 X147.332 Y141.335 E.04003
G1 X148.434 Y141.189 E.04139
G1 X149.522 Y141.121 E.0406
G1 X150.062 Y141.116 E.02014
G1 X150.901 Y141.145 E.03125
G1 X174.263 Y142.564 E.87173
G1 X174.887 Y142.679 E.02366
G1 X175.368 Y142.878 E.01939
G1 X175.627 Y143.042 E.0114
G1 X175.88 Y143.254 E.01231
G1 X176.064 Y143.451 E.01003
G1 X176.247 Y143.701 E.01153
G1 X176.539 Y144.341 E.0262
G1 X176.604 Y144.606 E.01015
G1 X176.648 Y144.927 E.01208
G1 X176.658 Y154.867 E.37022
G1 X176.636 Y155.195 E.01226
G1 X176.572 Y155.539 E.01303
G1 X176.477 Y155.843 E.01186
G1 X176.335 Y156.15 E.01262
G1 X176.144 Y156.447 E.01312
G1 X175.931 Y156.695 E.01221
G1 X175.487 Y157.049 E.02114
G1 X175.209 Y157.202 E.01184
G1 X174.914 Y157.316 E.01176
G1 X174.634 Y157.388 E.01078
G1 X174.328 Y157.43 E.0115
G1 X150.365 Y158.878 E.89416
G1 X149.37 Y158.874 E.03703
G1 X148.334 Y158.801 E.0387
G1 X147.413 Y158.678 E.0346
G1 X146.407 Y158.479 E.0382
G1 X145.567 Y158.259 E.03236
G1 X144.628 Y157.953 E.03678
G1 X143.63 Y157.555 E.04003
G1 X142.673 Y157.094 E.03954
G1 X142.056 Y156.752 E.02628
G1 X141.29 Y156.276 E.0336
G1 X140.581 Y155.778 E.03227
G1 X139.968 Y155.296 E.02903
G1 X139.465 Y154.863 E.02472
