; HEADER_BLOCK_START
; generated by Creality_Print V6.1.0.2041 on 2025-04-25 at 12:00:31
; total layer number: 89
; filament_density: 1.24
; filament_diameter: 1.75
; max_z_height: 12.49
; HEADER_BLOCK_END

; MINX = 121.41
; MINY = 80.00
; MINZ = 0.00
; MAXX = 178.59
; MAXY = 220.00
; MAXZ = 12.47

; THUMBNAIL_BLOCK_START

;
; THUMBNAIL_BLOCK_END

; THUMBNAIL_BLOCK_START

;
; THUMBNAIL_BLOCK_END

; external perimeters extrusion width = 0.42mm
; perimeters extrusion width = 0.45mm
; infill extrusion width = 0.45mm
; solid infill extrusion width = 0.42mm
; top infill extrusion width = 0.42mm
; first layer extrusion width = 0.50mm

; EXECUTABLE_BLOCK_START
EXCLUDE_OBJECT_DEFINE NAME=铲刀单独.stl_id_0_copy_0 CENTER=150,150 POLYGON=[[151.86,80.0819],[153.092,80.2357],[154.312,80.4656],[155.516,80.7708],[156.698,81.1501],[157.855,81.6021],[158.981,82.1249],[160.072,82.7166],[161.125,83.3749],[162.135,84.0973],[163.098,84.8809],[164.011,85.7228],[164.869,86.6196],[165.671,87.5681],[166.411,88.5644],[167.089,89.6048],[167.701,90.6852],[168.245,91.8015],[168.718,92.9494],[169.119,94.1245],[169.446,95.3222],[169.699,96.5378],[169.875,97.7669],[169.975,99.0045],[178.585,213.044],[178.595,213.326],[178.592,213.533],[178.589,213.588],[178.577,213.78],[178.57,213.851],[178.55,214.027],[178.537,214.113],[178.51,214.273],[178.492,214.365],[178.458,214.518],[178.394,214.761],[178.357,214.881],[178.317,215],[178.229,215.235],[178.168,215.379],[178.129,215.464],[178.019,215.688],[177.929,215.851],[177.897,215.905],[177.766,216.114],[177.644,216.291],[177.477,216.508],[177.321,216.692],[174.365,219.995],[125.635,219.995],[122.679,216.692],[122.523,216.508],[122.374,216.316],[122.234,216.114],[122.103,215.905],[122.067,215.843],[121.981,215.688],[121.871,215.464],[121.832,215.379],[121.771,215.235],[121.683,215],[121.643,214.881],[121.606,214.761],[121.542,214.518],[121.508,214.365],[121.49,214.273],[121.461,214.099],[121.45,214.027],[121.429,213.842],[121.423,213.78],[121.408,213.533],[121.405,213.318],[121.414,213.059],[130.025,99.0045],[130.124,97.7669],[130.301,96.5378],[130.554,95.3222],[130.881,94.1245],[131.282,92.9494],[131.755,91.8015],[132.299,90.6852],[132.911,89.6048],[133.588,88.5644],[134.329,87.5681],[135.131,86.6196],[135.989,85.7228],[136.902,84.8809],[137.865,84.0973],[138.875,83.3749],[139.928,82.7166],[141.019,82.1249],[142.145,81.6021],[143.302,81.1501],[144.484,80.7708],[145.688,80.4656],[146.908,80.2357],[148.14,80.0819],[149.379,80.0048],[150.621,80.0048],[151.86,80.0819]]
M73 P0 R35
M106 S0
M106 P2 S0
;TYPE:Custom
M141 S35;set chamber_temperature
M140 S0
M104 S0 
START_PRINT EXTRUDER_TEMP=210 BED_TEMP=50
T0
M104 S210
M204 S2000
G1 Z3 F600
M83
G1 Y150 F12000
G1 X0 F12000
G1 Z0.2 F600
G1 X0 Y150 F6000
G1 X0 Y0 E15 F6000
G1 X150 Y0 E15 F6000
G92 E0
M73 P0 R34
G1 Z1 F600
M73 P0 R34
G90
G21
M83 ; use relative distances for extrusion
G1 E-.8 F2400
M106 S0
;LAYER_CHANGE
;Z:0.2
;HEIGHT:0.2
;BEFORE_LAYER_CHANGE
;0.2
G92 E0

;_SET_FAN_SPEED_CHANGING_LAYER
SET_VELOCITY_LIMIT ACCEL=2000 ACCEL_TO_DECEL=2000
SET_VELOCITY_LIMIT SQUARE_CORNER_VELOCITY=8
EXCLUDE_OBJECT_START NAME=铲刀单独.stl_id_0_copy_0
G1 Z.4 F30000
G1 X174.135 Y218.965
G1 Z.2
G1 E.8 F2400
;TYPE:Inner wall
;WIDTH:0.499999
G1 F3600
G1 X125.865 Y218.965 E1.74281
G1 X123.197 Y215.947 E.14545
G1 X122.815 Y215.423 E.02339
G3 X122.349 Y214.193 I4.2 J-2.296 E.04766
G3 X122.29 Y212.877 I4.597 J-.863 E.04771
G1 X124.679 Y191.45 E.77842
G1 X125.403 Y190.771 E.03586
G2 X127.695 Y188.475 I-28.25 J-30.492 E.11719
G2 X131.004 Y184.525 I-25.256 J-24.517 E.18619
G1 X131.71 Y183.57 E.04288
G1 X133.054 Y181.461 E.0903
G2 X136.901 Y169.282 I-24.226 J-14.35 E.46518
G2 X137.043 Y165.581 I-30.121 J-3.007 E.13383
G1 X137.044 Y164.76 E.02963
G1 X136.87 Y161.123 E.13146
G1 X132.807 Y101.311 E2.16457
G1 X132.766 Y99.492 E.06569
G1 X132.903 Y97.764 E.06258
G1 X133.038 Y96.898 E.03164
G1 X133.441 Y95.194 E.06324
G1 X133.725 Y94.301 E.03381
G1 X134.382 Y92.691 E.06279
G1 X135.224 Y91.11 E.06468
G1 X136.226 Y89.625 E.06468
G1 X137.352 Y88.277 E.06342
G1 X138.651 Y87.014 E.06543
G1 X139.331 Y86.45 E.03191
G1 X140.757 Y85.441 E.06304
G1 X142.315 Y84.56 E.06463
G1 X143.908 Y83.866 E.06272
G1 X144.794 Y83.558 E.03389
G1 X146.483 Y83.115 E.06304
G1 X147.346 Y82.958 E.03167
G1 X149.138 Y82.775 E.06504
G3 X151.786 Y82.846 I.808 J19.261 E.09573
G1 X153.579 Y83.128 E.06554
G1 X154.439 Y83.334 E.03191
G1 X156.104 Y83.87 E.06314
G1 X156.916 Y84.201 E.03167
G1 X158.531 Y85.011 E.06525
G1 X159.282 Y85.465 E.03167
G1 X160.705 Y86.479 E.06308
G1 X161.379 Y87.04 E.03167
G1 X162.665 Y88.296 E.06491
G1 X163.794 Y89.65 E.06365
G3 X164.792 Y91.135 I-13.625 J10.235 E.06464
G1 X165.639 Y92.736 E.06541
G1 X166.285 Y94.331 E.0621
G1 X166.782 Y96.041 E.0643
G1 X167.102 Y97.801 E.06459
G3 X167.236 Y99.556 I-16.875 J2.171 E.0636
G1 X167.193 Y101.312 E.0634
G1 X163.056 Y162.337 E2.20844
G2 X162.942 Y166.016 I817.506 J27.209 E.13288
G2 X163.067 Y169.081 I51.269 J-.553 E.11079
G1 X163.12 Y169.726 E.02337
G2 X163.465 Y172.173 I767.512 J-106.783 E.08922
G2 X165.89 Y179.478 I27.173 J-4.966 E.2788
G1 X166.93 Y181.435 E.08003
G2 X168.267 Y183.536 I802.047 J-508.681 E.08991
G1 X168.959 Y184.508 E.04307
G1 X170.502 Y186.469 E.09014
G2 X172.545 Y188.732 I29.912 J-24.949 E.11008
G1 X173.004 Y189.223 E.02425
G1 X175.321 Y191.446 E.11595
G1 X177.599 Y211.884 E.7425
G1 X177.716 Y212.99 E.04016
G1 X177.727 Y213.536 E.01972
G1 X177.685 Y213.969 E.0157
G1 X177.539 Y214.62 E.02411
G1 X177.263 Y215.269 E.02546
G1 X176.957 Y215.775 E.02135
G1 X174.161 Y218.935 E.15233
G1 X174.373 Y219.386 F30000
;TYPE:Outer wall
G1 F3600
G1 X174.341 Y219.422 E.00175
G1 X125.659 Y219.422 E1.75769
G1 X122.672 Y216.044 E.16283
G3 X121.816 Y213.555 I3.871 J-2.723 E.09628
G1 X121.835 Y212.838 E.02589
G1 X124.243 Y191.232 E.78493
G1 X125.09 Y190.438 E.04194
G2 X127.361 Y188.163 I-27.816 J-30.038 E.11608
G2 X130.637 Y184.253 I-24.979 J-24.254 E.18432
G1 X131.333 Y183.311 E.04231
G1 X132.661 Y181.226 E.08925
G2 X136.447 Y169.237 I-23.824 J-14.114 E.45794
G2 X136.586 Y165.58 I-29.541 J-2.958 E.13222
G1 X136.587 Y164.779 E.02892
G1 X136.414 Y161.154 E.13102
G1 X132.35 Y101.331 E2.16494
G1 X132.308 Y99.479 E.0669
G1 X132.448 Y97.711 E.06405
G1 X132.589 Y96.81 E.0329
G1 X133 Y95.071 E.06451
G1 X133.295 Y94.145 E.03509
G1 X133.967 Y92.497 E.06428
G1 X134.832 Y90.874 E.06639
G1 X135.86 Y89.35 E.06639
G1 X137.017 Y87.966 E.06512
G1 X138.346 Y86.674 E.06693
G1 X139.053 Y86.087 E.03319
G1 X140.511 Y85.054 E.06452
G1 X142.111 Y84.151 E.06632
G1 X143.741 Y83.44 E.0642
G1 X144.661 Y83.12 E.03517
G1 X146.384 Y82.669 E.06432
G1 X147.282 Y82.505 E.03294
G1 X149.113 Y82.318 E.06646
G3 X151.836 Y82.391 I.83 J19.805 E.09843
G1 X153.668 Y82.68 E.06697
G1 X154.562 Y82.894 E.03319
G1 X156.26 Y83.44 E.0644
G1 X157.105 Y83.784 E.03294
G1 X158.752 Y84.611 E.06654
G1 X159.533 Y85.082 E.03294
G1 X160.984 Y86.116 E.06434
G1 X161.685 Y86.701 E.03294
G1 X163.001 Y87.985 E.0664
G1 X164.156 Y89.371 E.06513
G3 X165.188 Y90.906 I-14.078 J10.575 E.06679
G1 X166.054 Y92.543 E.0669
G1 X166.717 Y94.181 E.06378
G1 X167.228 Y95.936 E.06599
G1 X167.555 Y97.736 E.06609
G3 X167.693 Y99.55 I-17.436 J2.243 E.06571
G1 X167.649 Y101.333 E.06438
G1 X163.513 Y162.351 E2.20819
G1 X163.399 Y166.002 E.13186
G1 X163.448 Y167.617 E.05836
G2 X163.798 Y171.266 I25.835 J-.635 E.13244
G2 X164.812 Y175.642 I24.038 J-3.265 E.16242
G2 X166.293 Y179.263 I26.184 J-8.599 E.14139
G1 X167.325 Y181.204 E.07938
G1 X168.264 Y182.681 E.06317
G2 X169.325 Y184.234 I15.415 J-9.392 E.06792
G1 X170.855 Y186.179 E.08937
G2 X172.879 Y188.42 I29.635 J-24.723 E.10907
G1 X173.32 Y188.893 E.02333
G1 X175.757 Y191.231 E.12192
G1 X178.053 Y211.833 E.74847
G1 X178.173 Y212.963 E.04101
G1 X178.184 Y213.556 E.02142
G3 X177.322 Y216.052 I-4.834 J-.272 E.09658
G1 X174.399 Y219.356 E.15926
G1 E-.56 F2400
;WIPE_START
G1 F3600
G1 X174.341 Y219.422 E-.0106
G1 X172.429 Y219.422 E-.2294
;WIPE_END
G1 X171.85 Y211.812 Z.6 F30000
G1 X171.19 Y203.155 Z.6
G1 Z.2
G1 E.8 F2400
;TYPE:Inner wall
G1 F3600
G1 X171.16 Y203.4 E.00892
G1 X171.006 Y203.642 E.01035
G1 X170.647 Y203.896 E.01587
G1 X170.391 Y203.962 E.00955
G1 X170.102 Y203.919 E.01055
G1 X166.812 Y202.318 E.13211
G1 X162.92 Y200.615 E.15339
G1 X160.306 Y199.621 E.10097
G1 X157.916 Y198.847 E.0907
G2 X151.294 Y197.604 I-8.655 J27.855 E.24381
G2 X143.802 Y198.373 I-1.206 J25.131 E.27296
G1 X142.351 Y198.76 E.05422
G1 X139.695 Y199.621 E.10082
G1 X137.079 Y200.615 E.10103
G2 X129.952 Y203.892 I42.029 J100.781 E.28328
G1 X129.678 Y203.962 E.01021
G1 X129.443 Y203.931 E.00857
G1 X129.089 Y203.722 E.01485
G1 X128.906 Y203.532 E.00951
G1 X128.79 Y203.18 E.01338
G1 X130.126 Y191.201 E.4352
G1 X130.239 Y190.885 E.01212
G1 X132.477 Y188.336 E.12248
G1 X133.824 Y186.607 E.07913
G1 X135.078 Y184.808 E.07917
G1 X136.194 Y182.993 E.07694
G1 X137.204 Y181.104 E.07734
G1 X138.102 Y179.125 E.07846
G1 X138.835 Y177.17 E.07537
G2 X139.606 Y174.486 I-28.603 J-9.67 E.10088
G1 X139.73 Y173.978 E.01887
G1 X139.873 Y173.698 E.01135
G1 X140.155 Y173.499 E.01249
G1 X140.441 Y173.457 E.01041
G1 X140.744 Y173.55 E.01147
G1 X141.559 Y174.03 E.03413
G1 X142.961 Y174.735 E.05666
G1 X144.479 Y175.33 E.05888
G1 X146.006 Y175.768 E.05737
G1 X146.799 Y175.938 E.02928
G1 X148.397 Y176.163 E.05826
G1 X149.203 Y176.219 E.02917
G1 X150.796 Y176.219 E.05753
G1 X151.62 Y176.161 E.02982
G1 X153.183 Y175.94 E.057
G1 X153.976 Y175.773 E.02926
G1 X155.547 Y175.321 E.05901
G2 X159.255 Y173.551 I-5.966 J-17.262 E.14868
G1 X159.516 Y173.461 E.00995
G1 X159.798 Y173.484 E.01023
G3 X160.141 Y173.717 I-.195 J.657 E.01522
G1 X160.315 Y174.156 E.01704
G1 X160.827 Y176.105 E.07276
G1 X161.507 Y178.132 E.07721
G1 X162.331 Y180.125 E.07784
G1 X162.786 Y181.084 E.03834
G1 X163.808 Y182.997 E.07831
G1 X164.935 Y184.827 E.07758
G1 X166.177 Y186.608 E.07841
G1 X167.517 Y188.329 E.07875
G1 X169.708 Y190.824 E.11991
G1 X169.865 Y191.115 E.01194
G1 X171.199 Y203.085 E.43485
G1 X171.195 Y203.115 E.00109
G1 X170.738 Y203.074 F30000
;TYPE:Outer wall
G1 F3600
G1 X170.745 Y203.136 E.00223
G1 X170.709 Y203.285 E.00555
G1 X170.419 Y203.496 E.01296
G1 X170.25 Y203.483 E.0061
G1 X167.004 Y201.903 E.13036
G1 X163.093 Y200.192 E.15414
G1 X160.458 Y199.19 E.10179
G1 X157.821 Y198.335 E.1001
G2 X151.32 Y197.148 I-8.58 J28.582 E.2391
G2 X143.699 Y197.928 I-1.232 J25.57 E.27765
G2 X141.955 Y198.408 I7.245 J29.708 E.06532
G1 X139.543 Y199.19 E.09154
G1 X136.908 Y200.191 E.10178
G2 X129.75 Y203.482 I42.215 J101.235 E.28451
G1 X129.58 Y203.495 E.00615
G1 X129.29 Y203.284 E.01294
G1 X129.255 Y203.135 E.00553
G1 X130.58 Y191.251 E.43174
M73 P1 R34
G1 X130.635 Y191.126 E.00495
M73 P1 R34
G1 X132.83 Y188.627 E.12006
G1 X134.192 Y186.878 E.08006
G1 X135.46 Y185.059 E.08007
G1 X136.591 Y183.221 E.07791
G1 X137.614 Y181.306 E.07838
G1 X138.524 Y179.3 E.07955
G1 X139.267 Y177.32 E.07634
G1 X139.605 Y176.258 E.04024
G2 X140.174 Y174.087 I-48.885 J-13.981 E.08106
G1 X140.261 Y173.957 E.00564
G1 X140.411 Y173.913 E.00564
G2 X142.774 Y175.153 I23.602 J-42.116 E.09637
G1 X144.332 Y175.763 E.06042
G1 X145.895 Y176.212 E.05871
G1 X146.719 Y176.388 E.03043
G1 X148.349 Y176.618 E.05942
G1 X149.187 Y176.676 E.03033
G1 X150.813 Y176.676 E.0587
G1 X151.668 Y176.616 E.03098
G1 X153.263 Y176.391 E.05813
G1 X154.087 Y176.216 E.03041
G1 X155.689 Y175.756 E.06017
G2 X159.487 Y173.945 I-6.086 J-17.647 E.15227
G1 X159.668 Y173.922 E.00659
G1 X159.806 Y174.016 E.00604
G1 X160.389 Y176.236 E.08285
G1 X161.079 Y178.292 E.07833
G1 X161.913 Y180.31 E.07882
G1 X162.377 Y181.29 E.03915
G1 X163.411 Y183.225 E.07921
G1 X164.552 Y185.077 E.07856
G1 X165.809 Y186.879 E.07932
G1 X167.165 Y188.62 E.07967
G1 X169.365 Y191.126 E.1204
G1 X169.42 Y191.251 E.00495
G1 X170.733 Y203.035 E.42808
G1 E-.56 F2400
;WIPE_START
G1 F3600
G1 X170.745 Y203.136 E-.01221
G1 X170.709 Y203.285 E-.01844
G1 X170.419 Y203.496 E-.04306
G1 X170.25 Y203.483 E-.02026
G1 X169.156 Y202.95 E-.14604
;WIPE_END
G1 X168.566 Y195.341 Z.6 F30000
G1 X160.098 Y86.215 Z.6
G1 Z.2
G1 E.8 F2400
;TYPE:Bottom surface
;WIDTH:0.501008
G1 F6300
G1 X162.416 Y88.533 E.11862
G1 X163.522 Y89.86 E.0625
G3 X164.412 Y91.176 I-12.073 J9.118 E.05751
G1 X158.825 Y85.589 E.2859
G1 X158.366 Y85.312 E.01941
G1 X157.43 Y84.842 E.03787
G1 X165.17 Y92.582 E.39606
G1 X165.328 Y92.881 E.01226
G1 X165.673 Y93.733 E.03323
G1 X156.232 Y84.292 E.48311
G2 X155.246 Y83.954 I-2.714 J6.305 E.03776
G1 X166.053 Y94.76 E.55301
G1 X166.319 Y95.674 E.03444
G1 X154.297 Y83.653 E.61518
G1 X153.452 Y83.455 E.0314
G1 X166.522 Y96.525 E.66884
G1 X166.666 Y97.317 E.02912
G1 X152.683 Y83.334 E.71555
G1 X151.914 Y83.213 E.02817
G1 X166.787 Y98.086 E.76109
G3 X166.855 Y98.802 I-6.875 J1.016 E.02604
G1 X151.207 Y83.154 E.80076
G1 X150.517 Y83.112 E.02502
G1 X166.889 Y99.484 E.83783
G3 X166.879 Y100.122 I-4.252 J.253 E.02311
G1 X149.87 Y83.112 E.87046
G1 X149.227 Y83.117 E.02326
G1 X166.864 Y100.754 E.90256
G3 X166.844 Y101.383 I-7.308 J.091 E.02276
G1 X148.633 Y83.171 E.93196
G1 X148.045 Y83.231 E.02138
G1 X166.803 Y101.989 E.95993
G1 X166.762 Y102.596 E.022
G1 X147.458 Y83.291 E.9879
G2 X146.905 Y83.387 I.334 J3.579 E.0203
G1 X166.721 Y103.203 E1.01406
G1 X166.68 Y103.809 E.022
G1 X146.37 Y83.499 E1.03935
G1 X145.856 Y83.634 E.0192
G1 X166.639 Y104.416 E1.06351
G1 X166.598 Y105.023 E.022
G1 X145.343 Y83.768 E1.08768
G2 X144.834 Y83.907 I.629 J3.316 E.01912
G1 X166.556 Y105.629 E1.11163
G1 X166.515 Y106.236 E.022
G1 X144.353 Y84.074 E1.13413
G2 X143.882 Y84.251 I.915 J3.148 E.01822
G1 X166.474 Y106.843 E1.15612
G1 X166.433 Y107.45 E.022
G1 X143.431 Y84.448 E1.1771
G1 X142.98 Y84.645 E.01781
G1 X166.392 Y108.056 E1.19808
G1 X166.351 Y108.663 E.022
G1 X142.529 Y84.841 E1.21906
G2 X142.11 Y85.07 I.9 J2.146 E.01731
G1 X166.31 Y109.27 E1.2384
G1 X166.269 Y109.876 E.022
G1 X141.696 Y85.304 E1.25748
G1 X141.282 Y85.538 E.01721
G1 X166.227 Y110.483 E1.27657
G1 X166.186 Y111.09 E.022
G1 X140.874 Y85.778 E1.29534
G1 X140.495 Y86.046 E.01682
G1 X166.145 Y111.697 E1.31264
G1 X166.104 Y112.303 E.022
G1 X140.115 Y86.315 E1.32995
G1 X139.736 Y86.583 E.01682
G1 X166.063 Y112.91 E1.34725
G1 X166.022 Y113.517 E.022
G1 X139.369 Y86.864 E1.36393
G1 X139.015 Y87.158 E.01665
G1 X165.981 Y114.123 E1.37994
G1 X165.94 Y114.73 E.022
G1 X138.677 Y87.467 E1.39515
G1 X138.348 Y87.787 E.01658
G1 X165.898 Y115.337 E1.40985
G1 X165.857 Y115.943 E.022
G1 X138.02 Y88.106 E1.42456
G1 X137.691 Y88.425 E.01658
G1 X165.816 Y116.55 E1.43926
G1 X165.775 Y117.157 E.022
G1 X137.387 Y88.769 E1.45271
G1 X137.093 Y89.122 E.01664
G1 X165.734 Y117.764 E1.4657
G1 X165.693 Y118.37 E.022
G1 X136.798 Y89.475 E1.47869
G1 X136.503 Y89.828 E.01664
G1 X165.652 Y118.977 E1.49168
G1 X165.61 Y119.584 E.022
G1 X136.241 Y90.215 E1.50294
G1 X135.98 Y90.601 E.01689
G1 X165.569 Y120.19 E1.51419
G1 X165.528 Y120.797 E.022
G1 X135.719 Y90.988 E1.52545
G2 X135.467 Y91.383 I1.763 J1.407 E.017
G1 X165.487 Y121.404 E1.53628
G1 X165.446 Y122.011 E.022
G1 X135.241 Y91.806 E1.54569
G1 X135.016 Y92.229 E.01733
G1 X165.405 Y122.617 E1.55511
G1 X165.364 Y123.224 E.022
G1 X134.791 Y92.651 E1.56453
G2 X134.587 Y93.095 I2.061 J1.216 E.01771
G1 X165.323 Y123.831 E1.57286
G1 X165.281 Y124.437 E.022
G1 X134.399 Y93.555 E1.58036
M73 P2 R34
G1 X134.212 Y94.016 E.01798
M73 P2 R34
G1 X165.24 Y125.044 E1.58786
G1 X165.199 Y125.651 E.022
G1 X134.028 Y94.48 E1.59516
G1 X133.871 Y94.971 E.01866
G1 X165.158 Y126.257 E1.60107
G1 X165.117 Y126.864 E.022
G1 X133.727 Y95.474 E1.60637
G1 X133.603 Y95.998 E.01948
G1 X165.076 Y127.471 E1.6106
G1 X165.035 Y128.078 E.022
G1 X133.479 Y96.522 E1.61483
G2 X133.361 Y97.052 I3.377 J1.031 E.01966
G1 X164.994 Y128.684 E1.61877
G1 X164.952 Y129.291 E.022
G1 X133.273 Y97.612 E1.62115
G2 X133.212 Y98.199 I3.828 J.697 E.02136
G1 X164.911 Y129.898 E1.62218
G1 X164.87 Y130.504 E.022
G1 X133.164 Y98.799 E1.62252
G1 X133.117 Y99.399 E.02179
G1 X164.829 Y131.111 E1.62285
G1 X164.788 Y131.718 E.022
G1 X133.121 Y100.051 E1.62052
G1 X133.136 Y100.714 E.024
G1 X164.747 Y132.325 E1.61764
G1 X164.706 Y132.931 E.022
G1 X133.156 Y101.381 E1.61455
