; HEADER_BLOCK_START
; generated by Creality_Print V6.1.2.2458 on 2025-07-03 at 13:56:41
; total layer number: 89
; filament_density: 1.24
; filament_diameter: 1.75
; max_z_height: 12.49
; HEADER_BLOCK_END

; MINX = 121.41
; MINY = 80.25
; MINZ = 0.00
; MAXX = 178.59
; MAXY = 219.75
; MAXZ = 12.47

; THUMBNAIL_BLOCK_START

;
; THUMBNAIL_BLOCK_END

; THUMBNAIL_BLOCK_START

;
; THUMBNAIL_BLOCK_END

; external perimeters extrusion width = 0.42mm
; perimeters extrusion width = 0.45mm
; infill extrusion width = 0.45mm
; solid infill extrusion width = 0.42mm
; top infill extrusion width = 0.42mm
; first layer extrusion width = 0.50mm

; EXECUTABLE_BLOCK_START
EXCLUDE_OBJECT_DEFINE NAME=铲刀.stl_id_0_copy_0 CENTER=150,150 POLYGON=[[151.86,80.3295],[153.092,80.4832],[154.312,80.7132],[155.516,81.0184],[156.698,81.3977],[157.855,81.8497],[158.981,82.3725],[160.072,82.9642],[161.125,83.6225],[162.135,84.3448],[163.098,85.1285],[164.011,85.9704],[164.869,86.8672],[165.671,87.8157],[166.411,88.812],[167.089,89.8524],[167.701,90.9328],[168.245,92.0491],[168.718,93.197],[169.119,94.3721],[169.446,95.5698],[169.699,96.7854],[169.875,98.0145],[169.975,99.2521],[178.585,213.292],[178.595,213.573],[178.592,213.781],[178.589,213.835],[178.577,214.027],[178.57,214.098],[178.55,214.274],[178.537,214.361],[178.51,214.521],[178.492,214.613],[178.458,214.766],[178.394,215.008],[178.357,215.128],[178.317,215.247],[178.229,215.482],[178.168,215.626],[178.129,215.712],[178.019,215.935],[177.929,216.099],[177.897,216.152],[177.766,216.362],[177.644,216.538],[177.477,216.756],[177.321,216.94],[174.808,219.748],[125.192,219.748],[122.679,216.94],[122.523,216.756],[122.374,216.563],[122.234,216.362],[122.103,216.152],[122.067,216.091],[121.981,215.935],[121.871,215.712],[121.832,215.626],[121.771,215.482],[121.683,215.247],[121.641,215.121],[121.606,215.008],[121.542,214.766],[121.508,214.613],[121.49,214.521],[121.461,214.347],[121.45,214.274],[121.429,214.089],[121.423,214.027],[121.408,213.781],[121.405,213.566],[121.414,213.306],[130.025,99.2521],[130.124,98.0145],[130.301,96.7854],[130.554,95.5698],[130.881,94.3721],[131.282,93.197],[131.755,92.0491],[132.299,90.9328],[132.911,89.8524],[133.588,88.812],[134.329,87.8157],[135.131,86.8672],[135.989,85.9704],[136.902,85.1285],[137.865,84.3448],[138.875,83.6225],[139.928,82.9642],[141.019,82.3725],[142.145,81.8497],[143.302,81.3977],[144.484,81.0184],[145.688,80.7132],[146.908,80.4832],[148.14,80.3295],[149.379,80.2524],[150.621,80.2524],[151.86,80.3295]]
M73 P0 R35
;TYPE:Custom
M140 S0
M104 S0 
START_PRINT EXTRUDER_TEMP=220 BED_TEMP=50
T0
M104 S220
M204 S2000
G1 Z3 F600
M83
G1 Y150 F12000
G1 X0 F12000
G1 Z0.2 F600
G1 X0 Y150 F6000
G1 E0.8 F300
G1 X0 Y0 E9 F4600
G1 X150 Y0 E9 F4600
G92 E0
G1 Z1 F600
G90
G21
M83 ; use relative distances for extrusion
G1 E-.6 F2400
M106 S0
;LAYER_CHANGE
;Z:0.2
;HEIGHT:0.2
;BEFORE_LAYER_CHANGE
;0.2
G92 E0

;_SET_FAN_SPEED_CHANGING_LAYER
SET_VELOCITY_LIMIT ACCEL=2000 ACCEL_TO_DECEL=2000
SET_VELOCITY_LIMIT SQUARE_CORNER_VELOCITY=8
EXCLUDE_OBJECT_START NAME=铲刀.stl_id_0_copy_0
G1 Z.4 F30000
G1 X160.196 Y173.927
G1 Z.2
G1 E.6 F2400
;TYPE:Inner wall
;WIDTH:0.5
G1 F3600
G1 X160.552 Y175.371 E.0537
G2 X160.827 Y176.353 I47.25 J-12.728 E.03682
G2 X165.543 Y185.973 I32.186 J-9.813 E.38849
G2 X169.85 Y191.226 I38.764 J-27.389 E.24546
G1 X171.244 Y203.738 E.45457
G1 X170.408 Y204.321 E.03681
G2 X161.613 Y200.349 I-43.129 J83.764 E.34857
G2 X155.114 Y198.368 I-16.774 J43.398 E.24554
G2 X144.904 Y198.365 I-5.113 J23.623 E.37145
G2 X138.394 Y200.346 I10.223 J45.281 E.24588
G2 X132.061 Y203.099 I30.145 J77.985 E.24941
G1 X129.588 Y204.32 E.09959
G1 X128.756 Y203.736 E.03668
G1 X130.15 Y191.226 E.4545
G2 X136.195 Y183.24 I-31.24 J-29.928 E.36241
G2 X139.605 Y174.74 I-27.789 J-16.08 E.33184
G1 X139.949 Y173.33 E.05241
G1 X141.563 Y174.28 E.06761
G2 X158.434 Y174.282 I8.438 J-15.043 E.63649
G1 X160.049 Y173.331 E.06768
G1 X160.186 Y173.888 E.02072
G1 X159.752 Y174.036 F30000
;TYPE:Outer wall
G1 F3600
G2 X165.168 Y186.234 I32.885 J-7.3 E.4851
G2 X169.412 Y191.425 I38.619 J-27.247 E.24227
G1 X170.76 Y203.518 E.43937
G1 X170.369 Y203.79 E.01718
G2 X161.776 Y199.921 I-42.666 J83.288 E.34042
G2 X155.207 Y197.921 I-16.941 J43.839 E.24813
G2 X144.81 Y197.918 I-5.207 J24.068 E.37826
G2 X138.232 Y199.918 I10.321 J45.744 E.24847
G2 X131.864 Y202.687 I30.306 J78.409 E.2508
G1 X129.628 Y203.79 E.09
G1 X129.24 Y203.518 E.01712
G1 X130.588 Y191.425 E.43933
G2 X136.591 Y183.468 I-31.489 J-30.001 E.36066
G2 X140.048 Y174.849 I-28.188 J-16.309 E.33645
G1 X140.247 Y174.036 E.03024
G2 X145.107 Y176.253 I10.474 J-16.521 E.19348
G2 X158.657 Y174.681 I4.885 J-17.075 E.5055
G1 X159.717 Y174.056 E.04443
G1 E-.42 F2400
;WIPE_START
G1 F3600
G1 X160.109 Y175.487 E-.13354
G1 X160.249 Y175.985 E-.04646
;WIPE_END
G1 X162.643 Y183.232 Z.6 F30000
G1 X174.425 Y218.891 Z.6
G1 Z.2
G1 E.6 F2400
;TYPE:Inner wall
G1 F3600
G1 X125.575 Y218.891 E1.76379
G1 X123.333 Y216.385 E.12139
G3 X122.29 Y213.125 I3.106 J-2.79 E.12734
G1 X124.678 Y191.702 E.77828
G2 X130.825 Y185.046 I-33.366 J-36.979 E.32758
G2 X135.411 Y176.655 I-25.176 J-19.21 E.34659
G2 X137 Y168.423 I-28.172 J-9.706 E.3037
G2 X136.938 Y162.487 I-54.906 J-2.401 E.21446
G1 X132.807 Y101.549 E2.20527
M73 P0 R34
G3 X150.887 Y83.023 I17.206 J-1.293 E1.05694
M73 P0 R34
G3 X167.236 Y99.804 I-.887 J17.218 E.92999
G1 X167.193 Y101.559 E.0634
G1 X163.212 Y160.141 E2.12003
G2 X162.942 Y166.244 I91.011 J7.094 E.22061
G2 X163.712 Y173.626 I33.802 J.204 E.26852
G2 X167.577 Y182.741 I28.25 J-6.6 E.35926
G2 X172.989 Y189.455 I35.589 J-23.148 E.3119
G2 X175.322 Y191.702 I44.343 J-43.721 E.11695
G1 X177.71 Y213.125 E.77828
G3 X176.667 Y216.385 I-4.145 J.471 E.12732
G1 X174.452 Y218.861 E.11997
G1 X174.63 Y219.348 F30000
;TYPE:Outer wall
G1 F3600
G1 X125.37 Y219.348 E1.77855
G1 X122.984 Y216.681 E.1292
G3 X121.835 Y213.086 I3.442 J-3.082 E.14038
G1 X124.243 Y191.481 E.78488
G2 X130.459 Y184.771 I-33.172 J-36.967 E.33073
G2 X134.98 Y176.503 I-24.812 J-18.936 E.34155
G2 X136.543 Y168.398 I-27.734 J-9.552 E.29903
G2 X136.482 Y162.512 I-54.44 J-2.376 E.21262
G1 X132.35 Y101.576 E2.20524
G3 X150.911 Y82.567 I17.662 J-1.32 E1.08468
G3 X167.693 Y99.798 I-.911 J17.676 E.95485
M73 P1 R34
G1 X167.649 Y101.58 E.06437
M73 P1 R34
G1 X163.668 Y160.172 E2.12038
G2 X163.399 Y166.243 I90.57 J7.063 E.21946
G2 X164.158 Y173.524 I33.348 J.205 E.26484
G2 X167.963 Y182.496 I27.806 J-6.499 E.35362
G2 X173.315 Y189.136 I35.196 J-22.898 E.30845
G2 X175.757 Y191.481 I44.853 J-44.25 E.12227
G1 X178.165 Y213.086 E.78488
G3 X177.016 Y216.681 I-4.585 J.515 E.14038
G1 X174.656 Y219.318 E.12777
G1 E-.42 F2400
;WIPE_START
G1 F3600
G1 X172.656 Y219.319 E-.18
;WIPE_END
G1 X171.938 Y211.72 Z.6 F30000
G1 X160.093 Y86.438 Z.6
G1 Z.2
G1 E.6 F2400
;TYPE:Bottom surface
;WIDTH:0.500974
G1 F6300
G3 X162.385 Y88.745 I-86.071 J87.807 E.11767
G3 X164.379 Y91.373 I-12.102 J11.258 E.11957
G1 X158.872 Y85.865 E.28183
G2 X157.424 Y85.065 I-9.631 J15.722 E.05986
G1 X165.174 Y92.815 E.39657
G3 X165.697 Y93.986 I-22.011 J10.535 E.0464
G1 X156.264 Y84.552 E.48271
G2 X155.241 Y84.178 I-4.236 J9.976 E.03942
G1 X166.059 Y94.995 E.55353
G3 X166.33 Y95.915 I-8.739 J3.082 E.0347
G1 X154.322 Y83.906 E.61447
G2 X153.472 Y83.704 I-2.347 J7.991 E.03161
G1 X166.532 Y96.764 E.66828
G3 X166.68 Y97.56 I-7.604 J1.824 E.02929
G1 X152.678 Y83.558 E.71649
G2 X151.93 Y83.457 I-1.332 J7.083 E.02733
G1 X166.784 Y98.312 E.76013
G3 X166.854 Y99.029 I-6.885 J1.028 E.02608
G1 X151.217 Y83.393 E.80013
G2 X150.533 Y83.357 I-.692 J6.65 E.02478
G1 X166.888 Y99.711 E.83688
G3 X166.88 Y100.351 I-4.261 J.263 E.02315
G1 X149.876 Y83.347 E.87008
G1 X149.243 Y83.362 E.0229
G1 X166.864 Y100.983 E.90165
G3 X166.846 Y101.612 I-7.316 J.1 E.02279
G1 X148.638 Y83.405 E.93169
G2 X148.046 Y83.461 I.261 J5.915 E.02152
G1 X166.804 Y102.219 E.95987
G1 X166.763 Y102.826 E.022
G1 X147.472 Y83.535 E.98712
G2 X146.922 Y83.632 I.659 J5.365 E.02025
G1 X166.722 Y103.432 E1.01321
G1 X166.681 Y104.039 E.022
G1 X146.381 Y83.739 E1.03876
G1 X145.857 Y83.863 E.01948
G1 X166.64 Y104.646 E1.06347
G1 X166.599 Y105.252 E.022
G1 X145.348 Y84.001 E1.08742
G2 X144.848 Y84.15 I1.166 J4.847 E.01886
G1 X166.558 Y105.859 E1.11088
G1 X166.517 Y106.466 E.022
G1 X144.368 Y84.317 E1.13337
G2 X143.892 Y84.489 I1.475 J4.806 E.0183
G1 X166.475 Y107.072 E1.15559
G1 X166.434 Y107.679 E.022
G1 X143.431 Y84.676 E1.17708
G2 X142.982 Y84.875 I1.715 J4.477 E.01777
G1 X166.393 Y108.286 E1.19794
G1 X166.352 Y108.892 E.022
G1 X142.54 Y85.081 E1.21845
G2 X142.114 Y85.302 I1.915 J4.205 E.01739
G1 X166.311 Y109.499 E1.23816
G1 X166.27 Y110.105 E.022
G1 X141.691 Y85.527 E1.2577
G1 X141.286 Y85.77 E.01709
G1 X166.229 Y110.712 E1.27632
G1 X166.188 Y111.319 E.022
G1 X140.884 Y86.015 E1.29481
G1 X140.496 Y86.275 E.0169
G1 X166.146 Y111.925 E1.31256
G1 X166.105 Y112.532 E.022
G1 X140.114 Y86.541 E1.32997
G1 X139.743 Y86.818 E.01675
G1 X166.064 Y113.139 E1.34687
G1 X166.023 Y113.745 E.022
G1 X139.38 Y87.102 E1.36333
G1 X139.026 Y87.396 E.01665
G1 X165.982 Y114.352 E1.37934
G1 X165.941 Y114.959 E.022
G1 X138.682 Y87.7 E1.39487
G1 X138.345 Y88.01 E.01659
G1 X165.9 Y115.565 E1.41
G1 X165.859 Y116.172 E.022
G1 X138.018 Y88.332 E1.42459
G1 X137.698 Y88.66 E.01657
G1 X165.817 Y116.779 E1.43886
G1 X165.776 Y117.385 E.022
G1 X137.391 Y89 E1.45251
G1 X137.088 Y89.345 E.01661
G1 X165.735 Y117.992 E1.4659
G1 X165.694 Y118.599 E.022
G1 X136.797 Y89.702 E1.47867
G1 X136.511 Y90.063 E.01669
G1 X165.653 Y119.205 E1.49121
G1 X165.612 Y119.812 E.022
G1 X136.241 Y90.441 E1.50294
G2 X135.972 Y90.82 I3.502 J2.764 E.01682
G1 X165.571 Y120.419 E1.51458
G1 X165.53 Y121.025 E.022
G1 X135.72 Y91.216 E1.52537
G2 X135.471 Y91.615 I3.704 J2.585 E.01702
G1 X165.488 Y121.632 E1.53599
G1 X165.447 Y122.239 E.022
G1 X135.237 Y92.028 E1.54588
G2 X135.009 Y92.448 I3.914 J2.395 E.0173
G1 X165.406 Y122.845 E1.55543
G1 X165.365 Y123.452 E.022
G1 X134.793 Y92.88 E1.56437
M73 P2 R34
G2 X134.588 Y93.322 I4.139 J2.194 E.01765
M73 P2 R34
G1 X165.324 Y124.059 E1.57279
G1 X165.283 Y124.665 E.022
G1 X134.391 Y93.773 E1.58075
G2 X134.208 Y94.239 I4.563 J2.059 E.01809
G1 X165.242 Y125.272 E1.58799
G1 X165.201 Y125.879 E.022
G1 X134.033 Y94.711 E1.59485
G1 X133.876 Y95.202 E.01865
G1 X165.159 Y126.485 E1.60078
G1 X165.118 Y127.092 E.022
G1 X133.726 Y95.7 E1.60634
G1 X133.591 Y96.212 E.01917
G1 X165.077 Y127.699 E1.61117
G1 X165.036 Y128.305 E.022
G1 X133.473 Y96.742 E1.61511
G2 X133.364 Y97.281 I5.122 J1.314 E.0199
G1 X164.995 Y128.912 E1.61858
G1 X164.954 Y129.519 E.022
G1 X133.276 Y97.841 E1.62095
G2 X133.205 Y98.418 I5.509 J.975 E.02102
G1 X164.913 Y130.125 E1.6225
G1 X164.872 Y130.732 E.022
G1 X133.147 Y99.008 E1.62334
G1 X133.114 Y99.623 E.02228
G1 X164.83 Y131.339 E1.62292
G1 X164.789 Y131.945 E.022
G1 X133.106 Y100.262 E1.62125
G2 X133.119 Y100.923 I6.334 J.203 E.02394
G1 X164.748 Y132.552 E1.61847
G1 X164.707 Y133.159 E.022
G1 X133.154 Y101.606 E1.61459
G1 X133.201 Y102.301 E.0252
G1 X164.666 Y133.765 E1.61007
G1 X164.625 Y134.372 E.022
G1 X133.248 Y102.996 E1.60555
G1 X133.296 Y103.691 E.0252
G1 X164.584 Y134.979 E1.60103
G1 X164.543 Y135.585 E.022
G1 X133.343 Y104.385 E1.59651
G1 X133.39 Y105.08 E.0252
G1 X164.501 Y136.192 E1.59199
G1 X164.46 Y136.799 E.022
G1 X133.437 Y105.775 E1.58747
G1 X133.484 Y106.47 E.0252
G1 X164.419 Y137.405 E1.58295
G1 X164.378 Y138.012 E.022
G1 X133.532 Y107.165 E1.57843
G1 X133.579 Y107.86 E.0252
G1 X164.337 Y138.619 E1.57391
G1 X164.296 Y139.225 E.022
G1 X133.626 Y108.555 E1.56939
G1 X133.673 Y109.25 E.0252
G1 X164.255 Y139.832 E1.56486
G1 X164.214 Y140.439 E.022
G1 X133.72 Y109.945 E1.56034
G1 X133.768 Y110.64 E.0252
G1 X164.172 Y141.045 E1.55582
G1 X164.131 Y141.652 E.022
G1 X133.815 Y111.335 E1.5513
G1 X133.862 Y112.03 E.0252
G1 X164.09 Y142.259 E1.54678
G1 X164.049 Y142.865 E.022
G1 X133.909 Y112.725 E1.54226
G1 X133.956 Y113.42 E.0252
G1 X164.008 Y143.472 E1.53774
G1 X163.967 Y144.079 E.022
G1 X134.004 Y114.115 E1.53322
G1 X134.051 Y114.81 E.0252
G1 X163.926 Y144.685 E1.5287
G1 X163.885 Y145.292 E.022
G1 X134.098 Y115.505 E1.52418
G1 X134.145 Y116.2 E.0252
G1 X163.843 Y145.898 E1.51966
G1 X163.802 Y146.505 E.022
G1 X134.193 Y116.895 E1.51514
G1 X134.24 Y117.59 E.0252
G1 X163.761 Y147.112 E1.51062
G1 X163.72 Y147.718 E.022
G1 X134.287 Y118.285 E1.5061
G1 X134.334 Y118.98 E.0252
G1 X163.679 Y148.325 E1.50158
G1 X163.638 Y148.932 E.022
G1 X134.381 Y119.675 E1.49706
G1 X134.429 Y120.37 E.0252
G1 X163.597 Y149.538 E1.49254
G1 X163.556 Y150.145 E.022
G1 X134.476 Y121.065 E1.48802
M73 P3 R34
G1 X134.523 Y121.76 E.0252
M73 P3 R34
G1 X163.514 Y150.752 E1.4835
G1 X163.473 Y151.358 E.022
G1 X134.57 Y122.455 E1.47898
G1 X134.617 Y123.15 E.0252
G1 X163.432 Y151.965 E1.47446
G1 X163.391 Y152.572 E.022
G1 X134.665 Y123.845 E1.46994
G1 X134.712 Y124.54 E.0252
G1 X163.35 Y153.178 E1.46542
G1 X163.309 Y153.785 E.022
G1 X134.759 Y125.235 E1.4609
G1 X134.806 Y125.93 E.0252
G1 X163.268 Y154.392 E1.45638
G1 X163.227 Y154.998 E.022
G1 X134.853 Y126.625 E1.45186
G1 X134.901 Y127.32 E.0252
G1 X163.185 Y155.605 E1.44734
G1 X163.144 Y156.212 E.022
G1 X134.948 Y128.015 E1.44282
G1 X134.995 Y128.71 E.0252
G1 X163.103 Y156.818 E1.4383
G1 X163.062 Y157.425 E.022
G1 X135.042 Y129.405 E1.43378
G1 X135.09 Y130.1 E.0252
G1 X163.021 Y158.032 E1.42926
G1 X162.98 Y158.638 E.022
G1 X135.137 Y130.795 E1.42474
G1 X135.184 Y131.49 E.0252
G1 X162.939 Y159.245 E1.42022
G1 X162.898 Y159.852 E.022
G1 X135.231 Y132.185 E1.4157
G1 X135.278 Y132.88 E.0252
G1 X162.856 Y160.458 E1.41118
G1 X162.815 Y161.065 E.022
G1 X135.326 Y133.575 E1.40666
G1 X135.373 Y134.27 E.0252
G1 X162.774 Y161.672 E1.40214
G1 X162.733 Y162.278 E.022
G1 X135.42 Y134.965 E1.39762
G1 X135.467 Y135.66 E.0252
G1 X162.7 Y162.893 E1.39354
G1 X162.675 Y163.515 E.02252
G1 X135.514 Y136.355 E1.3898
G1 X135.562 Y137.05 E.0252
G1 X162.649 Y164.137 E1.38606
M73 P3 R33
G1 X162.623 Y164.759 E.02252
M73 P3 R33
G1 X135.609 Y137.745 E1.38233
G1 X135.656 Y138.44 E.0252
G1 X162.608 Y165.393 E1.37917
G1 X162.601 Y166.033 E.02318
G1 X135.703 Y139.135 E1.37639
G1 X135.75 Y139.83 E.0252
G1 X162.606 Y166.685 E1.37419
G1 X162.616 Y167.343 E.0238
G1 X135.798 Y140.525 E1.37228
G1 X135.845 Y141.22 E.0252
G1 X162.642 Y168.017 E1.37122
G1 X162.673 Y168.696 E.02459
G1 X135.892 Y141.915 E1.3704
G1 X135.939 Y142.61 E.0252
G1 X162.729 Y169.4 E1.37083
G2 X162.791 Y170.11 I9.321 J-.463 E.02581
G1 X135.986 Y143.305 E1.37162
G1 X136.034 Y144 E.0252
G1 X162.879 Y170.846 E1.37371
G2 X162.985 Y171.599 I9.358 J-.926 E.02753
G1 X136.081 Y144.695 E1.37669
G1 X136.128 Y145.39 E.0252
G1 X163.109 Y172.371 E1.38063
G2 X163.271 Y173.181 I9.546 J-1.486 E.02988
G1 X136.175 Y146.085 E1.38648
G1 X136.223 Y146.78 E.0252
G1 X163.456 Y174.014 E1.39357
G1 X163.675 Y174.88 E.03233
G1 X136.27 Y147.475 E1.40233
G1 X136.317 Y148.17 E.0252
G1 X163.951 Y175.804 E1.41403
G2 X164.275 Y176.776 I10.995 J-3.129 E.0371
G1 X136.364 Y148.865 E1.42822
G1 X136.411 Y149.56 E.0252
G1 X159.882 Y173.031 E1.20102
G1 X160.271 Y172.802 E.01634
G1 X160.474 Y173.622 E.03058
G1 X164.663 Y177.812 E.21438
G2 X165.136 Y178.933 I12.938 J-4.799 E.04403
G1 X160.685 Y174.482 E.22774
G2 X160.9 Y175.345 I13.621 J-2.932 E.03216
G1 X165.725 Y180.169 E.24687
G2 X166.473 Y181.565 I17.533 J-8.497 E.05731
G1 X161.153 Y176.245 E.27222
G2 X161.453 Y177.193 I14.437 J-4.046 E.03597
G1 X167.487 Y183.227 E.30878
G2 X169.042 Y185.43 I30.867 J-20.139 E.09758
G1 X161.804 Y178.192 E.37035
G2 X162.221 Y179.256 I15.465 J-5.439 E.04136
G1 X175.016 Y192.051 E.65473
G1 X175.097 Y192.78 E.02654
G1 X162.73 Y180.413 E.63284
G2 X163.351 Y181.682 I19.915 J-8.962 E.05113
G1 X175.178 Y193.509 E.60521
G1 X175.26 Y194.238 E.02654
G1 X164.119 Y183.098 E.57006
G2 X165.154 Y184.781 I29.019 J-16.687 E.07148
G1 X175.341 Y194.968 E.52127
G1 X175.422 Y195.697 E.02654
G1 X166.688 Y186.963 E.4469
G2 X170.178 Y191.076 I39.331 J-29.827 E.19527
G1 X170.181 Y191.103 E.00097
G1 X175.503 Y196.426 E.27236
G1 X175.585 Y197.155 E.02654
G1 X170.262 Y191.832 E.27236
G1 X170.343 Y192.561 E.02654
G1 X175.666 Y197.884 E.27236
