; HEADER_BLOCK_START
; generated by Creality_Print V5.1.7.10514 on 2025-04-25 at 18:12:10
; total layer number: 192
; filament_density: 1.24,1.24,1.24,1.24
; filament_diameter: 1.75,1.75,1.75,1.75
; max_z_height: 47.95
; HEADER_BLOCK_END

; MINX = 100.00
; MINY = 114.50
; MINZ = 0.00
; MAXX = 160.00
; MAXY = 145.50
; MAXZ = 48.00

; THUMBNAIL_BLOCK_START

;
; THUMBNAIL_BLOCK_END

; THUMBNAIL_BLOCK_START

;
; THUMBNAIL_BLOCK_END

; external perimeters extrusion width = 0.50mm
; perimeters extrusion width = 0.50mm
; infill extrusion width = 0.50mm
; solid infill extrusion width = 0.50mm
; top infill extrusion width = 0.42mm
; first layer extrusion width = 0.50mm

; external perimeters extrusion width = 0.50mm
; perimeters extrusion width = 0.50mm
; infill extrusion width = 0.50mm
; solid infill extrusion width = 0.50mm
; top infill extrusion width = 0.42mm
; first layer extrusion width = 0.50mm

; external perimeters extrusion width = 0.50mm
; perimeters extrusion width = 0.50mm
; infill extrusion width = 0.50mm
; solid infill extrusion width = 0.50mm
; top infill extrusion width = 0.42mm
; first layer extrusion width = 0.50mm

; external perimeters extrusion width = 0.50mm
; perimeters extrusion width = 0.50mm
; infill extrusion width = 0.50mm
; solid infill extrusion width = 0.50mm
; top infill extrusion width = 0.42mm
; first layer extrusion width = 0.50mm

; EXECUTABLE_BLOCK_START
EXCLUDE_OBJECT_DEFINE NAME=3DBenchy.stl_id_0_copy_0 CENTER=130,130 POLYGON=[[99.9995,129.973],[100.001,129.912],[100.004,129.851],[100.008,129.791],[100.014,129.73],[100.022,129.669],[100.032,129.609],[100.042,129.551],[100.055,129.488],[100.068,129.431],[100.084,129.368],[100.099,129.314],[100.117,129.255],[100.137,129.197],[100.158,129.139],[100.18,129.082],[100.203,129.026],[100.229,128.97],[100.256,128.914],[100.284,128.86],[100.313,128.806],[100.345,128.752],[100.376,128.699],[100.41,128.647],[100.528,128.473],[100.66,128.279],[100.794,128.086],[100.929,127.894],[101.064,127.703],[101.203,127.513],[101.34,127.324],[101.48,127.136],[101.62,126.95],[101.763,126.764],[101.905,126.58],[102.049,126.396],[102.341,126.032],[102.49,125.852],[102.639,125.672],[102.79,125.494],[102.94,125.317],[103.093,125.14],[103.248,124.965],[103.403,124.791],[103.518,124.663],[103.674,124.491],[103.833,124.32],[103.992,124.15],[104.152,123.982],[104.313,123.814],[104.474,123.648],[104.8,123.32],[104.965,123.159],[105.131,122.998],[105.297,122.839],[105.465,122.681],[105.632,122.525],[105.801,122.37],[105.972,122.216],[106.143,122.063],[106.314,121.911],[106.487,121.761],[106.661,121.612],[106.836,121.464],[107.013,121.318],[107.189,121.173],[107.368,121.029],[107.546,120.886],[107.725,120.744],[107.907,120.604],[108.089,120.465],[108.271,120.327],[108.456,120.19],[108.64,120.055],[108.826,119.92],[109.201,119.656],[109.389,119.526],[109.579,119.397],[109.77,119.269],[109.961,119.143],[110.153,119.018],[110.347,118.894],[110.542,118.772],[110.736,118.651],[110.933,118.531],[111.131,118.413],[111.328,118.296],[111.528,118.181],[111.728,118.066],[111.928,117.954],[112.13,117.842],[112.405,117.693],[112.605,117.588],[112.804,117.484],[113.004,117.382],[113.204,117.281],[113.405,117.182],[113.608,117.084],[113.81,116.988],[114.012,116.893],[114.217,116.8],[114.421,116.708],[114.626,116.617],[114.831,116.528],[115.036,116.441],[115.243,116.355],[115.334,116.318],[115.451,116.27],[115.658,116.187],[115.878,116.102],[115.997,116.056],[116.295,115.943],[116.507,115.866],[116.707,115.794],[116.929,115.716],[117.116,115.652],[117.13,115.647],[117.344,115.576],[117.557,115.506],[117.793,115.43],[117.995,115.368],[118.021,115.36],[118.248,115.291],[118.477,115.224],[118.705,115.159],[118.858,115.116],[118.934,115.095],[119.076,115.057],[119.293,114.999],[119.394,114.973],[119.512,114.943],[119.731,114.888],[120.156,114.782],[120.684,114.681],[120.694,114.68],[120.95,114.656],[120.997,114.652],[121.189,114.636],[121.274,114.629],[121.439,114.616],[121.519,114.61],[121.866,114.586],[122.312,114.559],[122.351,114.557],[122.736,114.538],[122.873,114.532],[123.221,114.519],[123.436,114.513],[123.656,114.507],[124.093,114.5],[124.478,114.498],[124.823,114.498],[125.122,114.501],[125.179,114.502],[125.401,114.506],[125.543,114.509],[125.661,114.512],[125.834,114.517],[125.924,114.52],[126.069,114.525],[126.247,114.532],[126.272,114.533],[126.43,114.54],[126.537,114.545],[126.668,114.552],[126.867,114.563],[127.111,114.577],[127.355,114.593],[127.371,114.594],[127.658,114.615],[127.904,114.634],[128.151,114.655],[128.332,114.672],[128.397,114.678],[128.577,114.695],[128.821,114.72],[128.889,114.727],[129.065,114.746],[129.381,114.782],[129.627,114.812],[129.796,114.834],[130.118,114.876],[158.172,118.78],[158.207,118.785],[158.257,118.793],[158.314,118.804],[158.346,118.811],[158.403,118.825],[158.415,118.828],[158.452,118.838],[158.463,118.841],[158.519,118.858],[158.571,118.875],[158.583,118.879],[158.638,118.899],[158.688,118.919],[158.747,118.944],[158.803,118.97],[158.845,118.991],[158.895,119.018],[158.914,119.028],[158.956,119.052],[159.007,119.083],[159.021,119.092],[159.056,119.115],[159.065,119.121],[159.113,119.154],[159.153,119.183],[159.16,119.189],[159.207,119.225],[159.244,119.256],[159.251,119.262],[159.296,119.3],[159.338,119.34],[159.359,119.36],[159.408,119.408],[159.443,119.445],[159.461,119.466],[159.481,119.489],[159.519,119.534],[159.555,119.58],[159.569,119.598],[159.59,119.626],[159.593,119.63],[159.627,119.678],[159.643,119.7],[159.658,119.722],[159.692,119.776],[159.721,119.827],[159.749,119.878],[159.769,119.916],[159.782,119.94],[159.804,119.988],[159.831,120.046],[159.852,120.097],[159.873,120.151],[159.891,120.207],[159.893,120.21],[159.909,120.262],[159.925,120.318],[159.94,120.375],[159.954,120.436],[159.965,120.493],[159.974,120.546],[159.975,120.552],[159.984,120.604],[159.988,120.647],[159.992,120.675],[159.998,120.755],[159.999,120.792],[160,120.821],[160,139.184],[159.998,139.245],[159.993,139.301],[159.988,139.354],[159.986,139.37],[159.98,139.417],[159.971,139.475],[159.954,139.564],[159.942,139.621],[159.926,139.678],[159.919,139.704],[159.903,139.761],[159.873,139.845],[159.859,139.882],[159.838,139.936],[159.831,139.953],[159.814,139.99],[159.79,140.042],[159.769,140.084],[159.736,140.146],[159.721,140.173],[159.709,140.194],[159.66,140.273],[159.643,140.3],[159.629,140.321],[159.595,140.369],[159.56,140.416],[159.516,140.469],[159.492,140.499],[159.461,140.534],[159.422,140.577],[159.408,140.592],[159.4,140.6],[159.359,140.641],[159.338,140.66],[159.296,140.7],[159.262,140.729],[159.217,140.766],[159.207,140.775],[159.172,140.803],[159.113,140.846],[159.065,140.879],[159.021,140.908],[158.956,140.948],[158.929,140.964],[158.876,140.992],[158.852,141.005],[158.825,141.019],[158.803,141.03],[158.747,141.056],[158.688,141.081],[158.638,141.101],[158.583,141.121],[158.571,141.125],[158.528,141.139],[158.515,141.143],[158.459,141.16],[158.452,141.162],[158.415,141.172],[158.403,141.175],[158.375,141.182],[158.359,141.186],[158.29,141.201],[158.261,141.206],[158.231,141.211],[158.202,141.216],[130.188,145.114],[129.945,145.147],[129.701,145.179],[129.457,145.209],[129.118,145.248],[128.895,145.272],[128.65,145.298],[128.404,145.322],[128.158,145.344],[127.913,145.365],[127.747,145.378],[127.667,145.384],[127.477,145.398],[127.421,145.402],[127.174,145.419],[127.013,145.429],[126.929,145.434],[126.767,145.443],[126.51,145.456],[126.403,145.461],[126.381,145.462],[126.245,145.468],[126.094,145.474],[125.95,145.479],[125.832,145.483],[125.766,145.485],[125.658,145.488],[125.54,145.491],[125.451,145.493],[125.311,145.496],[125.119,145.499],[124.938,145.501],[124.819,145.502],[124.422,145.502],[124.066,145.5],[123.631,145.492],[123.55,145.49],[123.194,145.48],[123.088,145.476],[122.76,145.463],[122.323,145.442],[121.991,145.422],[121.908,145.417],[121.797,145.41],[121.625,145.398],[121.505,145.389],[121.359,145.378],[121.271,145.371],[121.09,145.356],[120.96,145.345],[120.168,145.22],[120.158,145.218],[119.731,145.112],[119.623,145.085],[119.405,145.03],[119.262,144.993],[119.187,144.973],[119.033,144.932],[118.752,144.855],[118.576,144.805],[118.319,144.73],[118.104,144.666],[117.889,144.6],[117.668,144.53],[117.441,144.457],[117.248,144.393],[116.991,144.306],[116.822,144.247],[116.767,144.228],[116.599,144.168],[116.399,144.095],[116.177,144.013],[115.967,143.933],[115.767,143.855],[115.656,143.812],[115.557,143.772],[115.547,143.768],[115.337,143.684],[115.128,143.598],[115.073,143.575],[114.866,143.487],[114.658,143.397],[114.453,143.307],[114.043,143.121],[113.84,143.026],[113.637,142.93],[113.435,142.832],[113.234,142.733],[113.033,142.633],[112.834,142.531],[112.634,142.428],[112.437,142.323],[112.238,142.217],[112.042,142.11],[111.847,142.001],[111.652,141.89],[111.457,141.779],[111.263,141.666],[111.069,141.551],[110.877,141.435],[110.686,141.317],[110.494,141.199],[110.304,141.078],[110.115,140.957],[109.925,140.833],[109.737,140.709],[109.549,140.583],[109.362,140.456],[109.176,140.327],[108.992,140.197],[108.807,140.066],[108.624,139.933],[108.44,139.799],[108.257,139.663],[108.076,139.526],[107.896,139.388],[107.715,139.248],[107.536,139.107],[107.358,138.964],[107.18,138.82],[107.002,138.675],[106.826,138.528],[106.477,138.23],[106.303,138.079],[106.13,137.926],[105.958,137.772],[105.785,137.616],[105.672,137.511],[105.502,137.355],[105.334,137.197],[105.168,137.038],[105.004,136.878],[104.839,136.717],[104.675,136.555],[104.514,136.391],[104.353,136.227],[104.193,136.061],[104.034,135.894],[103.876,135.726],[103.718,135.557],[103.563,135.386],[103.408,135.215],[103.255,135.042],[103.102,134.868],[102.95,134.694],[102.799,134.517],[102.651,134.34],[102.501,134.162],[102.355,133.983],[102.209,133.802],[102.063,133.62],[101.919,133.437],[101.777,133.253],[101.636,133.068],[101.495,132.882],[101.355,132.695],[101.216,132.507],[101.079,132.317],[100.944,132.126],[100.808,131.935],[100.674,131.742],[100.542,131.548],[100.41,131.353],[100.382,131.308],[100.349,131.255],[100.318,131.202],[100.287,131.148],[100.258,131.093],[100.231,131.038],[100.181,130.924],[100.166,130.883],[100.144,130.825],[100.124,130.767],[100.105,130.708],[100.088,130.649],[100.071,130.587],[100.057,130.53],[100.046,130.47],[100.034,130.407],[100.025,130.348],[100.016,130.287],[100.009,130.226],[100.005,130.164],[100.001,130.095],[99.9995,130.034],[99.9995,129.973]]
M73 P0 R28
M106 S0
M106 P2 S0
;TYPE:Custom
M140 S0
M104 S0 
START_PRINT EXTRUDER_TEMP=220 BED_TEMP=50
T0
M104 S220
M204 S2000
G1 Z3 F600
M83
G1 Y150 F12000
G1 X0 F12000
G1 Z0.2 F600
G1 X0 Y150 F6000
G1 X0 Y0 E15 F6000
G1 X150 Y0 E15 F6000
G92 E0
G1 Z1 F600
M141 S35;set chamber_temperature
G90
G21
M83 ; use relative distances for extrusion
G2 Z0.4 I0.86 J0.86 P1 F10000 ; spiral lift a little from second lift
G1 X205 Y256 F30000
G1 Z0 F600
;_FORCE_RESUME_FAN_SPEED
T0
; filament start gcode
 
M104 S220
SET_PRESSURE_ADVANCE ADVANCE=0.04; Override pressure advance value
G1 Z.2 F30000
M106 P2 S255
M106 S0
;LAYER_CHANGE
;Z:0.2
;HEIGHT:0.2
;BEFORE_LAYER_CHANGE
;0.2
G92 E0

;_SET_FAN_SPEED_CHANGING_LAYER
SET_VELOCITY_LIMIT ACCEL=10000 ACCEL_TO_DECEL=10000
SET_VELOCITY_LIMIT SQUARE_CORNER_VELOCITY=100
G1 E-.8 F2400
G1 Z.4 F30000
G1 X137.302 Y225.5
M73 P0 R27
G1 Z.4
G1 Z.2
G1 E.8 F2400
;HEIGHT:0.2
;TYPE:Prime tower
;WIDTH:0.5
G1  X156.302 Y225.500  E0.7221 F6000
G1  Y235.900  E0.3953
G1  X137.302  E0.7221
G1  Y225.500  E0.3953
G1  X156.302 
G1  Y235.900 
G1  X155.302 
;--------------------
; CP EMPTY GRID START
; wipe tower layer #1
G1  Y235.400  E0.0190
G1  X137.802  E0.6651
G1  Y234.878  E0.0198
G1  X155.802  E0.6841
G1  Y234.356  E0.0198
G1  X137.802  E0.6841
G1  Y233.833  E0.0198
G1  X155.802  E0.6841
G1  Y233.311  E0.0198
G1  X137.802  E0.6841
G1  Y232.789  E0.0198
G1  X155.802  E0.6841
G1  Y232.267  E0.0198
G1  X137.802  E0.6841
G1  Y231.744  E0.0198
G1  X155.802  E0.6841
G1  Y231.222  E0.0198
G1  X137.802  E0.6841
G1  Y230.700  E0.0198
G1  X155.802  E0.6841
G1  Y230.178  E0.0198
G1  X137.802  E0.6841
G1  Y229.656  E0.0198
G1  X155.802  E0.6841
G1  Y229.133  E0.0198
G1  X137.802  E0.6841
G1  Y228.611  E0.0198
G1  X155.802  E0.6841
G1  Y228.089  E0.0198
G1  X137.802  E0.6841
G1  Y227.567  E0.0198
G1  X155.802  E0.6841
G1  Y227.044  E0.0198
G1  X137.802  E0.6841
G1  Y226.522  E0.0198
G1  X155.802  E0.6841
G1  Y226.000  E0.0198
G1  X137.802  E0.6841
G1  Y225.500  E0.0190
; CP EMPTY GRID END
;------------------






G1  X136.802 
G1  Y225.000 
G1  X156.802  E0.7601
G1  Y236.400  E0.4333
G1  X136.802  E0.7601
G1  Y225.000  E0.4333
G1  X136.345 
G1  Y224.543 
G1  X157.259  E0.7949
G1  Y236.857  E0.4680
G1  X136.345  E0.7949
G1  Y224.543  E0.4680
G1  X135.888 
G1  Y224.086 
G1  X157.716  E0.8296
G1  Y237.314  E0.5028
G1  X135.888  E0.8296
G1  Y224.086  E0.5028
G1  X135.431 Y223.629  
G1  X158.173  E0.8644
G1  Y237.771  E0.5375
G1  X135.431  E0.8644
G1  Y223.629  E0.5375
G1  X134.974 Y223.172  
G1  X158.630  E0.8991
G1  Y238.228  E0.5722
G1  X134.974  E0.8991
G1  Y223.172  E0.5722

SET_PRESSURE_ADVANCE ADVANCE=0.04; Override pressure advance value
G1 E-.8 F2400
;WIPE_START
G1 F3600
G1 X134.974 Y225.172
;WIPE_END
EXCLUDE_OBJECT_START NAME=3DBenchy.stl_id_0_copy_0
G1 X134.77 Y221.361 Z.4 F30000
G1 X130.4 Y139.792 Z.4
G1 Z.2
G1 E.8 F2400
;TYPE:Brim
;WIDTH:0.5
;HEIGHT:0.2
G1 F6000
G1 X129.385 Y139.789 E.03778
G1 X128.23 Y139.709 E.04313
G1 X126.916 Y139.519 E.04944
G1 X125.756 Y139.259 E.04429
G1 X124.799 Y138.979 E.03712
G1 X124.372 Y138.833 E.01682
G1 X123.32 Y138.417 E.04213
G1 X122.219 Y137.888 E.04549
G1 X121.18 Y137.291 E.04465
G1 X120.491 Y136.839 E.03069
G1 X119.725 Y136.275 E.03541
G1 X119.13 Y135.786 E.02871
G1 X118.329 Y135.05 E.0405
G1 X117.653 Y134.345 E.03636
G1 X117.037 Y133.624 E.03535
G1 X116.471 Y132.88 E.03482
G1 X116.042 Y132.251 E.02835
G1 X115.597 Y131.525 E.03173
G1 X115.44 Y131.215 E.01292
G1 X115.299 Y130.82 E.01563
G1 X115.205 Y130.359 E.01753
G1 X115.183 Y129.923 E.01625
G1 X115.228 Y129.492 E.01613
G1 X115.355 Y129.004 E.01878
G1 X115.518 Y128.62 E.01554
G1 X116.065 Y127.712 E.03949
G1 X116.71 Y126.795 E.04176
G1 X117.41 Y125.929 E.04146
G1 X118.161 Y125.118 E.04116
G1 X118.844 Y124.466 E.03519
G1 X119.766 Y123.694 E.04477
G1 X120.703 Y123.016 E.04307
G1 X121.647 Y122.429 E.04141
G1 X122.59 Y121.923 E.03986
G1 X123.575 Y121.474 E.04033
G1 X124.602 Y121.086 E.04089
G1 X125.653 Y120.768 E.04089
G1 X126.705 Y120.522 E.04025
G1 X127.805 Y120.34 E.0415
G1 X128.938 Y120.232 E.04242
G1 X130.077 Y120.202 E.04245
G1 X130.957 Y120.232 E.03277
G1 X154.32 Y121.652 E.8718
G1 X154.721 Y121.698 E.01503
G1 X155.204 Y121.816 E.01855
G1 X155.54 Y121.944 E.01337
G1 X155.958 Y122.163 E.01757
G1 X156.248 Y122.364 E.01315
G1 X156.601 Y122.68 E.01763
G1 X156.847 Y122.965 E.01402
G1 X157.096 Y123.338 E.01671
G1 X157.265 Y123.67 E.01387
G1 X157.404 Y124.039 E.0147
G1 X157.496 Y124.398 E.0138
G1 X157.56 Y124.856 E.01723
G1 X157.567 Y135.035 E.37911
G1 X157.516 Y135.495 E.01724
G1 X157.407 Y135.949 E.01741
G1 X157.236 Y136.395 E.01778
G1 X157.069 Y136.71 E.01329
G1 X156.864 Y137.013 E.01361
G1 X156.565 Y137.356 E.01694
G1 X156.238 Y137.643 E.01622
G1 X155.97 Y137.829 E.01216
G1 X155.609 Y138.026 E.01532
G1 X155.263 Y138.164 E.01385
G1 X154.816 Y138.285 E.01727
G1 X154.519 Y138.33 E.01118
G1 X130.439 Y139.789 E.89852
G1 X130.412 Y139.333 F30000
G1 F6000
G1 X130.382 Y139.335 E.00112
G1 X129.397 Y139.332 E.03668
G1 X128.273 Y139.254 E.04195
G1 X127.004 Y139.07 E.04777
G1 X125.866 Y138.815 E.04345
G1 X124.94 Y138.544 E.03591
G1 X124.533 Y138.405 E.01603
G1 X123.508 Y138 E.04105
G1 X122.437 Y137.485 E.04425
G1 X121.423 Y136.903 E.04356
G1 X120.749 Y136.461 E.03001
G1 X120.003 Y135.912 E.0345
G1 X119.427 Y135.438 E.02779
G1 X118.646 Y134.72 E.03952
G1 X117.995 Y134.041 E.03503
G1 X117.395 Y133.34 E.03438
G1 X116.844 Y132.615 E.03391
G1 X116.427 Y132.006 E.02749
G1 X115.999 Y131.307 E.03054
G1 X115.865 Y131.042 E.01105
G1 X115.738 Y130.687 E.01403
G1 X115.662 Y130.311 E.01428
