; HEADER_BLOCK_START
; generated by Creality_Print V6.0.4.1793 on 2025-04-01 at 16:58:00
; total layer number: 89
; filament_density: 1.24
; filament_diameter: 1.75
; max_z_height: 12.48
; HEADER_BLOCK_END

; MINX = 101.41
; MINY = 60.00
; MINZ = 0.00
; MAXX = 158.59
; MAXY = 200.00
; MAXZ = 12.47

; THUMBNAIL_BLOCK_START

;
; THUMBNAIL_BLOCK_END

; THUMBNAIL_BLOCK_START

;
; THUMBNAIL_BLOCK_END

; external perimeters extrusion width = 0.42mm
; perimeters extrusion width = 0.45mm
; infill extrusion width = 0.45mm
; solid infill extrusion width = 0.42mm
; top infill extrusion width = 0.42mm
; first layer extrusion width = 0.50mm

; EXECUTABLE_BLOCK_START
EXCLUDE_OBJECT_DEFINE NAME=铲刀单独.stl_id_0_copy_0 CENTER=130,130 POLYGON=[[101.405,193.318],[101.406,193.317],[101.406,193.288],[101.414,193.059],[101.415,193.044],[110.025,79.0045],[110.124,77.7669],[110.301,76.5378],[110.554,75.3222],[110.881,74.1245],[111.282,72.9494],[111.755,71.8015],[112.299,70.6852],[112.911,69.6048],[113.588,68.5644],[114.329,67.5681],[115.131,66.6196],[115.989,65.7227],[116.902,64.8809],[117.865,64.0973],[118.875,63.3749],[119.928,62.7166],[121.019,62.1249],[122.145,61.6021],[123.302,61.1501],[124.484,60.7708],[125.688,60.4656],[126.908,60.2357],[128.14,60.0819],[129.379,60.0048],[130.621,60.0048],[131.86,60.0819],[133.092,60.2357],[134.312,60.4656],[135.516,60.7708],[136.698,61.1501],[137.855,61.6021],[138.981,62.1249],[140.072,62.7166],[141.125,63.3749],[142.135,64.0973],[143.098,64.8809],[144.011,65.7227],[144.869,66.6196],[145.671,67.5681],[146.411,68.5644],[147.089,69.6048],[147.701,70.6852],[148.245,71.8015],[148.718,72.9494],[149.119,74.1245],[149.446,75.3222],[149.699,76.5378],[149.875,77.7669],[149.975,79.0045],[158.585,193.044],[158.586,193.063],[158.594,193.288],[158.594,193.318],[158.595,193.326],[158.592,193.533],[158.589,193.588],[158.577,193.78],[158.571,193.842],[158.57,193.851],[158.55,194.027],[158.537,194.113],[158.51,194.273],[158.492,194.365],[158.458,194.518],[158.394,194.761],[158.357,194.881],[158.355,194.888],[158.317,195],[158.229,195.235],[158.168,195.379],[158.166,195.384],[158.129,195.464],[158.019,195.688],[157.929,195.851],[157.927,195.854],[157.897,195.905],[157.766,196.114],[157.644,196.291],[157.626,196.316],[157.477,196.508],[157.321,196.692],[154.365,199.995],[105.635,199.995],[102.679,196.692],[102.523,196.508],[102.374,196.316],[102.356,196.291],[102.234,196.114],[102.103,195.905],[102.071,195.851],[102.067,195.843],[101.981,195.688],[101.871,195.464],[101.832,195.379],[101.771,195.235],[101.683,195],[101.643,194.881],[101.641,194.874],[101.606,194.761],[101.542,194.518],[101.508,194.365],[101.507,194.36],[101.49,194.273],[101.461,194.099],[101.45,194.027],[101.429,193.842],[101.428,193.838],[101.423,193.78],[101.41,193.577],[101.408,193.533],[101.405,193.318]]
M73 P0 R34
M106 S0
M106 P2 S0
;TYPE:Custom
M106 P2 S255 
M191 S35 ;set chamber_temperature and wait for it to be reached
M106 P2 S0 
M140 S0
M104 S0 
START_PRINT EXTRUDER_TEMP=220 BED_TEMP=50
T0
M104 S220
M204 S2000
G1 Z3 F600
M83
G1 Y150 F12000
G1 X0 F12000
G1 Z0.2 F600
G1 X0 Y150 F6000
G1 X0 Y0 E15 F6000
G1 X150 Y0 E15 F6000
G92 E0
G1 Z1 F600
G90
G21
M83 ; use relative distances for extrusion
G1 E-.8 F2400
M106 S0
;LAYER_CHANGE
;Z:0.2
;HEIGHT:0.2
;BEFORE_LAYER_CHANGE
;0.2
G92 E0

;_SET_FAN_SPEED_CHANGING_LAYER
SET_VELOCITY_LIMIT ACCEL=2000 ACCEL_TO_DECEL=2000
SET_VELOCITY_LIMIT SQUARE_CORNER_VELOCITY=8
EXCLUDE_OBJECT_START NAME=铲刀单独.stl_id_0_copy_0
G1 Z.4 F30000
G1 X105.865 Y198.965
G1 Z.2
G1 E.8 F2400
;TYPE:Inner wall
;WIDTH:0.499999
G1 F3600
G1 X103.197 Y195.947 E.14852
G1 X102.815 Y195.423 E.02389
G3 X102.349 Y194.193 I4.2 J-2.296 E.04867
G3 X102.29 Y192.877 I4.597 J-.863 E.04872
G1 X104.679 Y171.45 E.79481
G1 X105.403 Y170.771 E.03661
G2 X107.695 Y168.475 I-28.25 J-30.492 E.11966
G2 X111.004 Y164.525 I-25.256 J-24.517 E.19012
G1 X111.71 Y163.57 E.04378
G1 X113.054 Y161.461 E.0922
G2 X116.901 Y149.282 I-24.226 J-14.35 E.47498
G2 X117.043 Y145.581 I-30.121 J-3.007 E.13665
G1 X117.044 Y144.76 E.03025
G1 X116.87 Y141.123 E.13423
G1 X112.807 Y81.311 E2.21014
G1 X112.766 Y79.492 E.06707
G1 X112.903 Y77.764 E.0639
G1 X113.038 Y76.898 E.03231
G1 X113.441 Y75.194 E.06457
G1 X113.725 Y74.301 E.03452
G1 X114.382 Y72.691 E.06411
G1 X115.224 Y71.11 E.06604
G1 X116.226 Y69.625 E.06604
G1 X117.358 Y68.27 E.06509
G1 X117.975 Y67.638 E.03257
G1 X119.339 Y66.444 E.06682
G1 X120.757 Y65.441 E.06403
G1 X122.315 Y64.561 E.06599
G1 X123.908 Y63.866 E.06404
G1 X124.794 Y63.558 E.03461
G1 X126.483 Y63.115 E.06437
G1 X127.346 Y62.958 E.03233
G1 X129.138 Y62.775 E.06641
G3 X131.786 Y62.846 I.808 J19.263 E.09774
G1 X133.579 Y63.128 E.06692
G1 X134.439 Y63.334 E.03258
G1 X136.104 Y63.87 E.06447
G1 X136.916 Y64.201 E.03234
G1 X138.531 Y65.011 E.06663
G1 X139.282 Y65.465 E.03234
G1 X140.705 Y66.479 E.06441
G1 X141.379 Y67.04 E.03234
G1 X142.665 Y68.296 E.06628
G1 X143.794 Y69.65 E.06499
G3 X144.792 Y71.135 I-13.625 J10.235 E.066
G1 X145.639 Y72.736 E.06678
G1 X146.285 Y74.331 E.06341
G1 X146.782 Y76.041 E.06565
G1 X147.102 Y77.801 E.06595
G3 X147.236 Y79.556 I-16.875 J2.171 E.06494
G1 X147.193 Y81.312 E.06474
G1 X143.056 Y142.337 E2.25493
G2 X142.942 Y146.016 I817.485 J27.208 E.13568
G2 X143.067 Y149.081 I51.27 J-.553 E.11312
G1 X143.12 Y149.726 E.02386
G2 X143.465 Y152.173 I766.954 J-106.704 E.0911
G2 X145.89 Y159.478 I27.173 J-4.966 E.28467
G1 X146.93 Y161.435 E.08172
G2 X148.267 Y163.536 I802.232 J-508.799 E.0918
G1 X148.959 Y164.508 E.04397
G1 X150.502 Y166.469 E.09203
G2 X152.545 Y168.732 I29.912 J-24.949 E.1124
G1 X153.004 Y169.223 E.02476
G1 X155.321 Y171.446 E.11839
G1 X157.599 Y191.884 E.75813
G1 X157.716 Y192.99 E.04101
G1 X157.727 Y193.536 E.02013
G1 X157.685 Y193.969 E.01603
G1 X157.539 Y194.62 E.02462
G1 X157.263 Y195.269 E.026
G1 X156.957 Y195.775 E.0218
G1 X154.135 Y198.965 E.15701
G1 X105.905 Y198.965 E1.77803
G1 X105.623 Y199.381 F30000
;TYPE:Outer wall
G1 F3600
G1 X102.672 Y196.044 E.16422
G3 X101.816 Y193.555 I3.871 J-2.723 E.09831
G1 X101.835 Y192.838 E.02644
G1 X104.243 Y171.232 E.80146
G1 X105.09 Y170.438 E.04282
G2 X107.361 Y168.163 I-27.816 J-30.037 E.11853
G2 X110.637 Y164.253 I-24.979 J-24.253 E.1882
G1 X111.333 Y163.311 E.0432
G1 X112.661 Y161.226 E.09113
G2 X116.447 Y149.237 I-23.824 J-14.114 E.46758
G2 X116.586 Y145.58 I-29.541 J-2.958 E.135
G1 X116.587 Y144.779 E.02953
G1 X116.414 Y141.154 E.13378
G1 X112.35 Y81.331 E2.21052
G1 X112.308 Y79.479 E.06831
G1 X112.448 Y77.711 E.06539
G1 X112.589 Y76.81 E.03359
G1 X113 Y75.071 E.06587
G1 X113.295 Y74.145 E.03583
G1 X113.967 Y72.497 E.06563
G1 X114.832 Y70.874 E.06778
G1 X115.86 Y69.35 E.06779
G1 X117.019 Y67.963 E.06661
G1 X117.661 Y67.306 E.03388
G1 X119.056 Y66.085 E.06834
G1 X120.511 Y65.054 E.06576
G1 X122.111 Y64.151 E.06772
G1 X123.741 Y63.44 E.06556
G1 X124.661 Y63.12 E.03592
G1 X126.384 Y62.669 E.06567
G1 X127.282 Y62.505 E.03363
G1 X129.113 Y62.318 E.06786
G3 X131.836 Y62.391 I.83 J19.807 E.1005
G1 X133.668 Y62.68 E.06838
G1 X134.562 Y62.894 E.03389
G1 X136.26 Y63.44 E.06575
G1 X137.105 Y63.784 E.03364
G1 X138.752 Y64.611 E.06794
G1 X139.533 Y65.082 E.03364
G1 X140.984 Y66.116 E.06569
G1 X141.685 Y66.701 E.03363
G1 X143.001 Y67.985 E.0678
G1 X144.156 Y69.371 E.0665
G3 X145.188 Y70.906 I-14.078 J10.575 E.06819
G1 X146.054 Y72.543 E.06831
G1 X146.717 Y74.181 E.06512
G1 X147.228 Y75.936 E.06738
G1 X147.555 Y77.736 E.06748
G3 X147.693 Y79.55 I-17.436 J2.243 E.0671
G1 X147.649 Y81.333 E.06573
G1 X143.513 Y142.351 E2.25468
G1 X143.399 Y146.002 E.13464
G1 X143.448 Y147.617 E.05959
G2 X143.798 Y151.266 I25.835 J-.635 E.13522
G2 X144.812 Y155.642 I24.038 J-3.265 E.16584
G2 X146.293 Y159.263 I26.185 J-8.599 E.14437
G1 X147.325 Y161.204 E.08105
G1 X148.264 Y162.681 E.0645
G2 X149.325 Y164.234 I15.415 J-9.392 E.06935
G1 X150.855 Y166.179 E.09125
G2 X152.879 Y168.42 I29.635 J-24.723 E.11137
G1 X153.32 Y168.893 E.02382
G1 X155.757 Y171.231 E.12449
G1 X158.053 Y191.833 E.76423
G1 X158.173 Y192.963 E.04188
G1 X158.184 Y193.556 E.02187
G3 X157.322 Y196.052 I-4.834 J-.272 E.09862
G1 X154.341 Y199.422 E.16586
G1 X105.659 Y199.422 E1.79469
G1 X105.649 Y199.41 E.00056
G1 E-.56 F2400
;WIPE_START
G1 F3600
G1 X104.324 Y197.912 E-.24
;WIPE_END
G1 X109.051 Y191.92 Z.6 F30000
G1 X139.342 Y153.521 Z.6
G1 Z.2
G1 E.8 F2400
;TYPE:Inner wall
G1 F3600
G1 X139.516 Y153.461 E.00677
G1 X139.798 Y153.484 E.01044
G3 X140.141 Y153.717 I-.195 J.657 E.01554
G1 X140.315 Y154.156 E.0174
G1 X140.827 Y156.105 E.0743
G1 X141.507 Y158.132 E.07884
G1 X142.331 Y160.125 E.07948
G1 X142.786 Y161.084 E.03915
G1 X143.808 Y162.997 E.07995
G1 X144.935 Y164.827 E.07922
G1 X146.177 Y166.608 E.08006
G1 X147.517 Y168.329 E.08041
G1 X149.708 Y170.824 E.12244
G1 X149.865 Y171.115 E.01219
G1 X151.199 Y183.085 E.44401
G1 X151.16 Y183.4 E.0117
G1 X151.006 Y183.642 E.01057
G1 X150.647 Y183.896 E.0162
G1 X150.391 Y183.962 E.00975
G1 X150.102 Y183.919 E.01078
G1 X146.812 Y182.318 E.1349
G1 X142.92 Y180.615 E.15662
G1 X140.306 Y179.621 E.10311
G1 X137.916 Y178.847 E.09261
G2 X131.294 Y177.604 I-8.655 J27.855 E.24894
G2 X123.802 Y178.373 I-1.206 J25.131 E.27871
G1 X122.351 Y178.76 E.05537
G1 X119.695 Y179.621 E.10294
G1 X117.079 Y180.615 E.10316
G2 X109.952 Y183.892 I42.028 J100.78 E.28925
G1 X109.678 Y183.962 E.01042
G1 X109.443 Y183.931 E.00875
G1 X109.089 Y183.722 E.01516
G1 X108.906 Y183.532 E.00971
G1 X108.79 Y183.18 E.01366
G1 X110.126 Y171.201 E.44436
G1 X110.239 Y170.885 E.01238
G1 X112.477 Y168.336 E.12506
G1 X113.824 Y166.607 E.0808
G1 X115.078 Y164.808 E.08083
G1 X116.194 Y162.993 E.07856
G1 X117.204 Y161.104 E.07897
G1 X118.102 Y159.125 E.08011
G1 X118.835 Y157.17 E.07696
G2 X119.606 Y154.486 I-28.603 J-9.67 E.103
G1 X119.73 Y153.978 E.01927
G1 X119.873 Y153.698 E.01159
G1 X120.155 Y153.499 E.01275
G1 X120.441 Y153.457 E.01062
G1 X120.744 Y153.55 E.01171
G1 X121.559 Y154.03 E.03485
G1 X122.961 Y154.735 E.05785
G1 X124.479 Y155.33 E.06012
G1 X126.006 Y155.768 E.05858
G1 X126.799 Y155.938 E.02989
G1 X128.397 Y156.163 E.05949
G1 X129.203 Y156.219 E.02979
G1 X130.796 Y156.219 E.05875
G1 X131.62 Y156.161 E.03045
G1 X133.183 Y155.941 E.05819
G1 X133.976 Y155.773 E.02988
G1 X135.547 Y155.321 E.06025
G2 X139.255 Y153.551 I-5.966 J-17.262 E.15181
G1 X139.304 Y153.534 E.00191
G1 X139.487 Y153.945 F30000
;TYPE:Outer wall
G1 F3600
G1 X139.668 Y153.922 E.00672
G1 X139.806 Y154.016 E.00616
G1 X140.389 Y156.236 E.0846
G1 X141.079 Y158.292 E.07998
G1 X141.913 Y160.31 E.08048
G1 X142.377 Y161.29 E.03998
G1 X143.411 Y163.225 E.08088
G1 X144.552 Y165.077 E.08021
G1 X145.809 Y166.879 E.08098
G1 X147.165 Y168.62 E.08135
G1 X149.365 Y171.126 E.12293
G1 X149.42 Y171.251 E.00506
G1 X150.745 Y183.136 E.44084
G1 X150.709 Y183.285 E.00566
G1 X150.419 Y183.496 E.01323
G1 X150.25 Y183.483 E.00623
G1 X147.004 Y181.903 E.13311
G1 X143.093 Y180.192 E.15737
M73 P1 R34
G1 X140.458 Y179.19 E.10394
M73 P1 R34
G1 X137.821 Y178.335 E.1022
G2 X131.32 Y177.148 I-8.58 J28.582 E.24413
G2 X123.699 Y177.928 I-1.232 J25.57 E.28349
G2 X121.955 Y178.408 I7.245 J29.708 E.0667
G1 X119.543 Y179.19 E.09346
G1 X116.908 Y180.191 E.10392
G2 X109.75 Y183.482 I42.215 J101.234 E.2905
G1 X109.58 Y183.495 E.00628
G1 X109.29 Y183.284 E.01321
G1 X109.255 Y183.135 E.00565
G1 X110.58 Y171.251 E.44083
G1 X110.635 Y171.126 E.00506
G1 X112.83 Y168.627 E.12259
G1 X114.192 Y166.878 E.08174
G1 X115.46 Y165.059 E.08176
G1 X116.591 Y163.221 E.07955
G1 X117.614 Y161.306 E.08003
G1 X118.524 Y159.3 E.08122
G1 X119.267 Y157.32 E.07795
G1 X119.605 Y156.258 E.04108
G2 X120.174 Y154.087 I-48.883 J-13.98 E.08276
G1 X120.261 Y153.957 E.00576
G1 X120.411 Y153.913 E.00576
G2 X122.774 Y155.153 I23.599 J-42.111 E.0984
G1 X124.332 Y155.763 E.06169
G1 X125.895 Y156.212 E.05995
G1 X126.719 Y156.388 E.03107
G1 X128.349 Y156.618 E.06067
G1 X129.187 Y156.676 E.03097
G1 X130.813 Y156.676 E.05993
G1 X131.668 Y156.616 E.03163
G1 X133.263 Y156.391 E.05935
G1 X134.087 Y156.216 E.03106
G1 X135.689 Y155.756 E.06144
G2 X139.453 Y153.966 I-6.086 J-17.647 E.154
G1 E-.56 F2400
;WIPE_START
G1 F3600
G1 X139.668 Y153.922 E-.02632
G1 X139.806 Y154.016 E-.02006
G1 X140.216 Y155.577 E-.19363
;WIPE_END
G1 X140.206 Y147.944 Z.6 F30000
G1 X140.098 Y66.215 Z.6
G1 Z.2
G1 E.8 F2400
;TYPE:Bottom surface
;WIDTH:0.501008
G1 F6300
G1 X142.416 Y68.533 E.12112
G1 X143.522 Y69.86 E.06382
G3 X144.412 Y71.176 I-12.073 J9.118 E.05872
G1 X138.825 Y65.589 E.29192
G1 X138.366 Y65.312 E.01982
G1 X137.43 Y64.842 E.03866
G1 X145.17 Y72.582 E.40439
G1 X145.328 Y72.881 E.01252
G1 X145.673 Y73.733 E.03393
G1 X136.232 Y64.292 E.49328
G2 X135.246 Y63.954 I-2.714 J6.305 E.03856
G1 X146.053 Y74.76 E.56466
G1 X146.319 Y75.674 E.03516
G1 X134.297 Y63.653 E.62814
G1 X133.452 Y63.455 E.03206
G1 X146.522 Y76.525 E.68292
G1 X146.666 Y77.317 E.02973
G1 X132.683 Y63.334 E.73061
G1 X131.914 Y63.213 E.02876
G1 X146.787 Y78.086 E.77711
G3 X146.855 Y78.802 I-6.875 J1.016 E.02659
G1 X131.207 Y63.154 E.81762
G1 X130.517 Y63.112 E.02554
G1 X146.889 Y79.484 E.85547
G3 X146.879 Y80.122 I-4.253 J.253 E.02359
G1 X129.87 Y63.112 E.88878
G1 X129.227 Y63.117 E.02375
G1 X146.864 Y80.754 E.92156
G3 X146.844 Y81.383 I-7.308 J.091 E.02324
G1 X128.633 Y63.171 E.95158
G1 X128.045 Y63.231 E.02183
G1 X146.803 Y81.989 E.98013
G1 X146.762 Y82.596 E.02247
G1 X127.458 Y63.291 E1.00869
G2 X126.905 Y63.387 I.334 J3.579 E.02073
G1 X146.721 Y83.203 E1.0354
G1 X146.68 Y83.809 E.02247
G1 X126.37 Y63.499 E1.06123
G1 X125.856 Y63.634 E.01961
G1 X146.639 Y84.416 E1.0859
G1 X146.598 Y85.023 E.02247
G1 X125.343 Y63.768 E1.11058
G2 X124.834 Y63.907 I.629 J3.316 E.01952
G1 X146.556 Y85.629 E1.13504
G1 X146.515 Y86.236 E.02247
G1 X124.353 Y64.074 E1.15801
G2 X123.882 Y64.251 I.914 J3.148 E.0186
G1 X146.474 Y86.843 E1.18046
G1 X146.433 Y87.45 E.02247
G1 X123.431 Y64.448 E1.20188
G1 X122.98 Y64.645 E.01818
G1 X146.392 Y88.056 E1.2233
G1 X146.351 Y88.663 E.02247
G1 X122.529 Y64.841 E1.24473
G2 X122.11 Y65.07 I.9 J2.146 E.01767
G1 X146.31 Y89.27 E1.26447
G1 X146.269 Y89.876 E.02247
G1 X121.696 Y65.304 E1.28396
G1 X121.282 Y65.538 E.01757
G1 X146.227 Y90.483 E1.30344
G1 X146.186 Y91.09 E.02247
G1 X120.874 Y65.778 E1.32261
G1 X120.495 Y66.046 E.01717
G1 X146.145 Y91.697 E1.34028
G1 X146.104 Y92.303 E.02247
G1 X120.115 Y66.315 E1.35795
G1 X119.736 Y66.583 E.01717
G1 X146.063 Y92.91 E1.37562
G1 X146.022 Y93.517 E.02247
G1 X119.374 Y66.869 E1.39238
G1 X119.029 Y67.171 E.01696
G1 X145.981 Y94.123 E1.40828
G1 X145.94 Y94.73 E.02247
G1 X118.683 Y67.474 E1.42419
G1 X118.338 Y67.776 E.01696
G1 X145.898 Y95.337 E1.44009
G1 X145.857 Y95.943 E.02247
G1 X118.008 Y68.095 E1.45515
G1 X117.688 Y68.422 E.01693
G1 X145.816 Y96.55 E1.46972
G1 X145.775 Y97.157 E.02247
G1 X117.387 Y68.769 E1.48329
G1 X117.093 Y69.122 E.01699
G1 X145.734 Y97.764 E1.49655
G1 X145.693 Y98.37 E.02247
G1 X116.798 Y69.475 E1.50982
G1 X116.503 Y69.828 E.01699
G1 X145.652 Y98.977 E1.52308
G1 X145.61 Y99.584 E.02247
G1 X116.241 Y70.215 E1.53458
G1 X115.98 Y70.601 E.01724
G1 X145.569 Y100.19 E1.54607
G1 X145.528 Y100.797 E.02247
G1 X115.719 Y70.988 E1.55756
G2 X115.467 Y71.383 I1.763 J1.407 E.01736
G1 X145.487 Y101.404 E1.56862
G1 X145.446 Y102.011 E.02247
G1 X115.241 Y71.806 E1.57823
G1 X115.016 Y72.229 E.01769
G1 X145.405 Y102.617 E1.58785
G1 X145.364 Y103.224 E.02247
G1 X114.791 Y72.651 E1.59746
G2 X114.587 Y73.095 I2.061 J1.217 E.01808
G1 X145.323 Y103.831 E1.60598
M73 P2 R34
G1 X145.281 Y104.437 E.02247
M73 P2 R34
G1 X114.399 Y73.555 E1.61363
G1 X114.212 Y74.016 E.01836
G1 X145.24 Y105.044 E1.62129
G1 X145.199 Y105.651 E.02247
G1 X114.028 Y74.48 E1.62874
G1 X113.871 Y74.971 E.01905
G1 X145.158 Y106.257 E1.63477
G1 X145.117 Y106.864 E.02247
G1 X113.727 Y75.474 E1.64019
G1 X113.603 Y75.998 E.01989
G1 X145.076 Y107.471 E1.64451
G1 X145.035 Y108.078 E.02247
G1 X113.479 Y76.522 E1.64883
G2 X113.361 Y77.052 I3.376 J1.031 E.02007
G1 X144.994 Y108.684 E1.65285
G1 X144.952 Y109.291 E.02247
G1 X113.273 Y77.612 E1.65528
G2 X113.212 Y78.199 I3.828 J.697 E.02181
G1 X144.911 Y109.898 E1.65633
G1 X144.87 Y110.504 E.02247
G1 X113.164 Y78.799 E1.65667
